cube.CUBE
#Generated by wwww.onlinelutcreator.com 
LUT_3D_SIZE 5 
DOMAIN_MIN 0.000000 0.000000 0.000000
DOMAIN_MAX 0.903226 0.903226 0.903226
0.000000 0.000000 0.000000
0.000000 0.000000 0.000000
0.000000 0.000000 0.000000
0.000000 0.000000 0.000000
0.000000 0.000000 0.000000
0.000000 0.000000 0.000000
0.000000 0.000000 0.000000
0.000000 0.000000 0.000000
0.000000 0.000000 0.000000
0.000000 0.000000 0.000000
0.000000 0.815686 0.972549
0.784314 0.784314 0.972549
0.564706 0.784314 0.972549
0.345098 0.784314 0.972549
0.125490 0.784314 0.972549
0.000000 0.596078 0.972549
0.784314 0.564706 0.972549
0.564706 0.564706 0.972549
0.345098 0.564706 0.972549
0.125490 0.564706 0.972549
0.000000 0.376471 0.972549
0.784314 0.345098 0.972549
0.564706 0.345098 0.972549
0.345098 0.345098 0.972549
0.125490 0.345098 0.972549
0.000000 0.000000 0.000000
0.784314 0.219608 0.784314
0.564706 0.219608 0.784314
0.345098 0.219608 0.784314
0.125490 0.219608 0.784314
0.000000 0.031373 0.784314
0.784314 0.000000 0.784314
0.564706 0.000000 0.784314
0.345098 0.000000 0.784314
0.125490 0.000000 0.784314
0.000000 0.815686 0.752941
0.784314 0.784314 0.752941
0.564706 0.784314 0.752941
0.345098 0.784314 0.752941
0.125490 0.784314 0.752941
0.000000 0.596078 0.752941
0.784314 0.564706 0.752941
0.564706 0.564706 0.752941
0.345098 0.564706 0.752941
0.125490 0.564706 0.752941
0.000000 0.376471 0.752941
0.784314 0.345098 0.752941
0.564706 0.345098 0.752941
0.345098 0.345098 0.752941
0.125490 0.345098 0.752941
0.000000 0.000000 0.000000
0.784314 0.219608 0.564706
0.564706 0.219608 0.564706
0.345098 0.219608 0.564706
0.125490 0.219608 0.564706
0.000000 0.031373 0.564706
0.784314 0.000000 0.564706
0.564706 0.000000 0.564706
0.345098 0.000000 0.564706
0.125490 0.000000 0.564706
0.000000 0.815686 0.533333
0.784314 0.784314 0.533333
0.564706 0.784314 0.533333
0.345098 0.784314 0.533333
0.125490 0.784314 0.533333
0.000000 0.596078 0.533333
0.784314 0.564706 0.533333
0.564706 0.564706 0.533333
0.345098 0.564706 0.533333
0.125490 0.564706 0.533333
0.000000 0.376471 0.533333
0.784314 0.345098 0.533333
0.564706 0.345098 0.533333
0.345098 0.345098 0.533333
0.125490 0.345098 0.533333
0.000000 0.000000 0.000000
0.784314 0.219608 0.345098
0.564706 0.219608 0.345098
0.345098 0.219608 0.345098
0.125490 0.219608 0.345098
0.000000 0.031373 0.345098
0.784314 0.000000 0.345098
0.564706 0.000000 0.345098
0.345098 0.000000 0.345098
0.125490 0.000000 0.345098
0.000000 0.815686 0.313725
0.784314 0.784314 0.313725
0.564706 0.784314 0.313725
0.345098 0.784314 0.313725
0.125490 0.784314 0.313725
0.000000 0.596078 0.313725
0.784314 0.564706 0.313725
0.564706 0.564706 0.313725
0.345098 0.564706 0.313725
0.125490 0.564706 0.313725
0.000000 0.376471 0.313725
0.784314 0.345098 0.313725
0.564706 0.345098 0.313725
0.345098 0.345098 0.313725
0.125490 0.345098 0.313725
0.000000 0.000000 0.000000
0.784314 0.219608 0.125490
0.564706 0.219608 0.125490
0.345098 0.219608 0.125490
0.125490 0.219608 0.125490
0.000000 0.031373 0.125490
0.784314 0.000000 0.125490
0.564706 0.000000 0.125490
0.345098 0.000000 0.125490
0.125490 0.000000 0.125490
0.000000 0.815686 0.094118
0.784314 0.784314 0.094118
0.564706 0.784314 0.094118
0.345098 0.784314 0.094118
0.125490 0.784314 0.094118
0.000000 0.596078 0.094118
0.784314 0.564706 0.094118
0.564706 0.564706 0.094118
0.345098 0.564706 0.094118
0.125490 0.564706 0.094118
0.000000 0.376471 0.094118
0.784314 0.345098 0.094118
0.564706 0.345098 0.094118
0.345098 0.345098 0.094118
0.125490 0.345098 0.094118
