cube.CUBE
#Generated by wwww.onlinelutcreator.com 
LUT_3D_SIZE 8 
DOMAIN_MIN 0.000000 0.000000 0.000000
DOMAIN_MAX 0.903226 0.903226 0.903226
0.000000 0.000000 0.000000
0.000000 0.000000 0.000000
0.000000 0.000000 0.000000
0.000000 0.000000 0.000000
0.000000 0.000000 0.000000
0.000000 0.000000 0.000000
0.000000 0.000000 0.000000
0.000000 0.000000 0.000000
0.000000 0.000000 0.000000
0.000000 0.000000 0.000000
0.000000 0.000000 0.000000
0.000000 0.000000 0.000000
0.000000 0.000000 0.000000
0.000000 0.000000 0.000000
0.000000 0.000000 0.000000
0.000000 0.000000 0.000000
0.000000 0.000000 0.000000
0.878431 0.972549 0.972549
0.752941 0.972549 0.972549
0.627451 0.972549 0.972549
0.501961 0.972549 0.972549
0.376471 0.972549 0.972549
0.250980 0.972549 0.972549
0.125490 0.972549 0.972549
0.000000 0.878431 0.972549
0.878431 0.847059 0.972549
0.752941 0.847059 0.972549
0.627451 0.847059 0.972549
0.501961 0.847059 0.972549
0.376471 0.847059 0.972549
0.250980 0.847059 0.972549
0.125490 0.847059 0.972549
0.000000 0.000000 0.000000
0.878431 0.721569 0.972549
0.752941 0.721569 0.972549
0.627451 0.721569 0.972549
0.501961 0.721569 0.972549
0.376471 0.721569 0.972549
0.250980 0.721569 0.972549
0.125490 0.721569 0.972549
0.000000 0.627451 0.972549
0.878431 0.596078 0.972549
0.752941 0.596078 0.972549
0.627451 0.596078 0.972549
0.501961 0.596078 0.972549
0.376471 0.596078 0.972549
0.250980 0.596078 0.972549
0.125490 0.596078 0.972549
0.000000 0.000000 0.000000
0.878431 0.470588 0.972549
0.752941 0.470588 0.972549
0.627451 0.470588 0.972549
0.501961 0.470588 0.972549
0.376471 0.470588 0.972549
0.250980 0.470588 0.972549
0.125490 0.470588 0.972549
0.000000 0.376471 0.972549
0.878431 0.345098 0.972549
0.752941 0.345098 0.972549
0.627451 0.345098 0.972549
0.501961 0.345098 0.972549
0.376471 0.345098 0.972549
0.250980 0.345098 0.972549
0.125490 0.345098 0.972549
0.000000 0.000000 0.000000
0.878431 0.219608 0.878431
0.752941 0.219608 0.878431
0.627451 0.219608 0.878431
0.501961 0.219608 0.878431
0.376471 0.219608 0.878431
0.250980 0.219608 0.878431
0.125490 0.219608 0.878431
0.000000 0.125490 0.878431
0.878431 0.094118 0.878431
0.752941 0.094118 0.878431
0.627451 0.094118 0.878431
0.501961 0.094118 0.878431
0.376471 0.094118 0.878431
0.250980 0.094118 0.878431
0.125490 0.094118 0.878431
0.000000 0.000000 0.000000
0.878431 0.972549 0.847059
0.752941 0.972549 0.847059
0.627451 0.972549 0.847059
0.501961 0.972549 0.847059
0.376471 0.972549 0.847059
0.250980 0.972549 0.847059
0.125490 0.972549 0.847059
0.000000 0.878431 0.847059
0.878431 0.847059 0.847059
0.752941 0.847059 0.847059
0.627451 0.847059 0.847059
0.501961 0.847059 0.847059
0.376471 0.847059 0.847059
0.250980 0.847059 0.847059
0.125490 0.847059 0.847059
0.000000 0.000000 0.000000
0.878431 0.721569 0.847059
0.752941 0.721569 0.847059
0.627451 0.721569 0.847059
0.501961 0.721569 0.847059
0.376471 0.721569 0.847059
0.250980 0.721569 0.847059
0.125490 0.721569 0.847059
0.000000 0.627451 0.847059
0.878431 0.596078 0.847059
0.752941 0.596078 0.847059
0.627451 0.596078 0.847059
0.501961 0.596078 0.847059
0.376471 0.596078 0.847059
0.250980 0.596078 0.847059
0.125490 0.596078 0.847059
0.000000 0.000000 0.000000
0.878431 0.470588 0.847059
0.752941 0.470588 0.847059
0.627451 0.470588 0.847059
0.501961 0.470588 0.847059
0.376471 0.470588 0.847059
0.250980 0.470588 0.847059
0.125490 0.470588 0.847059
0.000000 0.376471 0.847059
0.878431 0.345098 0.847059
0.752941 0.345098 0.847059
0.627451 0.345098 0.847059
0.501961 0.345098 0.847059
0.376471 0.345098 0.847059
0.250980 0.345098 0.847059
0.125490 0.345098 0.847059
0.000000 0.000000 0.000000
0.878431 0.219608 0.752941
0.752941 0.219608 0.752941
0.627451 0.219608 0.752941
0.501961 0.219608 0.752941
0.376471 0.219608 0.752941
0.250980 0.219608 0.752941
0.125490 0.219608 0.752941
0.000000 0.125490 0.752941
0.878431 0.094118 0.752941
0.752941 0.094118 0.752941
0.627451 0.094118 0.752941
0.501961 0.094118 0.752941
0.376471 0.094118 0.752941
0.250980 0.094118 0.752941
0.125490 0.094118 0.752941
0.000000 0.000000 0.000000
0.878431 0.972549 0.721569
0.752941 0.972549 0.721569
0.627451 0.972549 0.721569
0.501961 0.972549 0.721569
0.376471 0.972549 0.721569
0.250980 0.972549 0.721569
0.125490 0.972549 0.721569
0.000000 0.878431 0.721569
0.878431 0.847059 0.721569
0.752941 0.847059 0.721569
0.627451 0.847059 0.721569
0.501961 0.847059 0.721569
0.376471 0.847059 0.721569
0.250980 0.847059 0.721569
0.125490 0.847059 0.721569
0.000000 0.000000 0.000000
0.878431 0.721569 0.721569
0.752941 0.721569 0.721569
0.627451 0.721569 0.721569
0.501961 0.721569 0.721569
0.376471 0.721569 0.721569
0.250980 0.721569 0.721569
0.125490 0.721569 0.721569
0.000000 0.627451 0.721569
0.878431 0.596078 0.721569
0.752941 0.596078 0.721569
0.627451 0.596078 0.721569
0.501961 0.596078 0.721569
0.376471 0.596078 0.721569
0.250980 0.596078 0.721569
0.125490 0.596078 0.721569
0.000000 0.000000 0.000000
0.878431 0.470588 0.721569
0.752941 0.470588 0.721569
0.627451 0.470588 0.721569
0.501961 0.470588 0.721569
0.376471 0.470588 0.721569
0.250980 0.470588 0.721569
0.125490 0.470588 0.721569
0.000000 0.376471 0.721569
0.878431 0.345098 0.721569
0.752941 0.345098 0.721569
0.627451 0.345098 0.721569
0.501961 0.345098 0.721569
0.376471 0.345098 0.721569
0.250980 0.345098 0.721569
0.125490 0.345098 0.721569
0.000000 0.000000 0.000000
0.878431 0.219608 0.627451
0.752941 0.219608 0.627451
0.627451 0.219608 0.627451
0.501961 0.219608 0.627451
0.376471 0.219608 0.627451
0.250980 0.219608 0.627451
0.125490 0.219608 0.627451
0.000000 0.125490 0.627451
0.878431 0.094118 0.627451
0.752941 0.094118 0.627451
0.627451 0.094118 0.627451
0.501961 0.094118 0.627451
0.376471 0.094118 0.627451
0.250980 0.094118 0.627451
0.125490 0.094118 0.627451
0.000000 0.000000 0.000000
0.878431 0.972549 0.596078
0.752941 0.972549 0.596078
0.627451 0.972549 0.596078
0.501961 0.972549 0.596078
0.376471 0.972549 0.596078
0.250980 0.972549 0.596078
0.125490 0.972549 0.596078
0.000000 0.878431 0.596078
0.878431 0.847059 0.596078
0.752941 0.847059 0.596078
0.627451 0.847059 0.596078
0.501961 0.847059 0.596078
0.376471 0.847059 0.596078
0.250980 0.847059 0.596078
0.125490 0.847059 0.596078
0.000000 0.000000 0.000000
0.878431 0.721569 0.596078
0.752941 0.721569 0.596078
0.627451 0.721569 0.596078
0.501961 0.721569 0.596078
0.376471 0.721569 0.596078
0.250980 0.721569 0.596078
0.125490 0.721569 0.596078
0.000000 0.627451 0.596078
0.878431 0.596078 0.596078
0.752941 0.596078 0.596078
0.627451 0.596078 0.596078
0.501961 0.596078 0.596078
0.376471 0.596078 0.596078
0.250980 0.596078 0.596078
0.125490 0.596078 0.596078
0.000000 0.000000 0.000000
0.878431 0.470588 0.596078
0.752941 0.470588 0.596078
0.627451 0.470588 0.596078
0.501961 0.470588 0.596078
0.376471 0.470588 0.596078
0.250980 0.470588 0.596078
0.125490 0.470588 0.596078
0.000000 0.376471 0.596078
0.878431 0.345098 0.596078
0.752941 0.345098 0.596078
0.627451 0.345098 0.596078
0.501961 0.345098 0.596078
0.376471 0.345098 0.596078
0.250980 0.345098 0.596078
0.125490 0.345098 0.596078
0.000000 0.000000 0.000000
0.878431 0.219608 0.501961
0.752941 0.219608 0.501961
0.627451 0.219608 0.501961
0.501961 0.219608 0.501961
0.376471 0.219608 0.501961
0.250980 0.219608 0.501961
0.125490 0.219608 0.501961
0.000000 0.125490 0.501961
0.878431 0.094118 0.501961
0.752941 0.094118 0.501961
0.627451 0.094118 0.501961
0.501961 0.094118 0.501961
0.376471 0.094118 0.501961
0.250980 0.094118 0.501961
0.125490 0.094118 0.501961
0.000000 0.000000 0.000000
0.878431 0.972549 0.470588
0.752941 0.972549 0.470588
0.627451 0.972549 0.470588
0.501961 0.972549 0.470588
0.376471 0.972549 0.470588
0.250980 0.972549 0.470588
0.125490 0.972549 0.470588
0.000000 0.878431 0.470588
0.878431 0.847059 0.470588
0.752941 0.847059 0.470588
0.627451 0.847059 0.470588
0.501961 0.847059 0.470588
0.376471 0.847059 0.470588
0.250980 0.847059 0.470588
0.125490 0.847059 0.470588
0.000000 0.000000 0.000000
0.878431 0.721569 0.470588
0.752941 0.721569 0.470588
0.627451 0.721569 0.470588
0.501961 0.721569 0.470588
0.376471 0.721569 0.470588
0.250980 0.721569 0.470588
0.125490 0.721569 0.470588
0.000000 0.627451 0.470588
0.878431 0.596078 0.470588
0.752941 0.596078 0.470588
0.627451 0.596078 0.470588
0.501961 0.596078 0.470588
0.376471 0.596078 0.470588
0.250980 0.596078 0.470588
0.125490 0.596078 0.470588
0.000000 0.000000 0.000000
0.878431 0.470588 0.470588
0.752941 0.470588 0.470588
0.627451 0.470588 0.470588
0.501961 0.470588 0.470588
0.376471 0.470588 0.470588
0.250980 0.470588 0.470588
0.125490 0.470588 0.470588
0.000000 0.376471 0.470588
0.878431 0.345098 0.470588
0.752941 0.345098 0.470588
0.627451 0.345098 0.470588
0.501961 0.345098 0.470588
0.376471 0.345098 0.470588
0.250980 0.345098 0.470588
0.125490 0.345098 0.470588
0.000000 0.000000 0.000000
0.878431 0.219608 0.376471
0.752941 0.219608 0.376471
0.627451 0.219608 0.376471
0.501961 0.219608 0.376471
0.376471 0.219608 0.376471
0.250980 0.219608 0.376471
0.125490 0.219608 0.376471
0.000000 0.125490 0.376471
0.878431 0.094118 0.376471
0.752941 0.094118 0.376471
0.627451 0.094118 0.376471
0.501961 0.094118 0.376471
0.376471 0.094118 0.376471
0.250980 0.094118 0.376471
0.125490 0.094118 0.376471
0.000000 0.000000 0.000000
0.878431 0.972549 0.345098
0.752941 0.972549 0.345098
0.627451 0.972549 0.345098
0.501961 0.972549 0.345098
0.376471 0.972549 0.345098
0.250980 0.972549 0.345098
0.125490 0.972549 0.345098
0.000000 0.878431 0.345098
0.878431 0.847059 0.345098
0.752941 0.847059 0.345098
0.627451 0.847059 0.345098
0.501961 0.847059 0.345098
0.376471 0.847059 0.345098
0.250980 0.847059 0.345098
0.125490 0.847059 0.345098
0.000000 0.000000 0.000000
0.878431 0.721569 0.345098
0.752941 0.721569 0.345098
0.627451 0.721569 0.345098
0.501961 0.721569 0.345098
0.376471 0.721569 0.345098
0.250980 0.721569 0.345098
0.125490 0.721569 0.345098
0.000000 0.627451 0.345098
0.878431 0.596078 0.345098
0.752941 0.596078 0.345098
0.627451 0.596078 0.345098
0.501961 0.596078 0.345098
0.376471 0.596078 0.345098
0.250980 0.596078 0.345098
0.125490 0.596078 0.345098
0.000000 0.000000 0.000000
0.878431 0.470588 0.345098
0.752941 0.470588 0.345098
0.627451 0.470588 0.345098
0.501961 0.470588 0.345098
0.376471 0.470588 0.345098
0.250980 0.470588 0.345098
0.125490 0.470588 0.345098
0.000000 0.376471 0.345098
0.878431 0.345098 0.345098
0.752941 0.345098 0.345098
0.627451 0.345098 0.345098
0.501961 0.345098 0.345098
0.376471 0.345098 0.345098
0.250980 0.345098 0.345098
0.125490 0.345098 0.345098
0.000000 0.000000 0.000000
0.878431 0.219608 0.250980
0.752941 0.219608 0.250980
0.627451 0.219608 0.250980
0.501961 0.219608 0.250980
0.376471 0.219608 0.250980
0.250980 0.219608 0.250980
0.125490 0.219608 0.250980
0.000000 0.125490 0.250980
0.878431 0.094118 0.250980
0.752941 0.094118 0.250980
0.627451 0.094118 0.250980
0.501961 0.094118 0.250980
0.376471 0.094118 0.250980
0.250980 0.094118 0.250980
0.125490 0.094118 0.250980
0.000000 0.000000 0.000000
0.878431 0.972549 0.219608
0.752941 0.972549 0.219608
0.627451 0.972549 0.219608
0.501961 0.972549 0.219608
0.376471 0.972549 0.219608
0.250980 0.972549 0.219608
0.125490 0.972549 0.219608
0.000000 0.878431 0.219608
0.878431 0.847059 0.219608
0.752941 0.847059 0.219608
0.627451 0.847059 0.219608
0.501961 0.847059 0.219608
0.376471 0.847059 0.219608
0.250980 0.847059 0.219608
0.125490 0.847059 0.219608
0.000000 0.000000 0.000000
0.878431 0.721569 0.219608
0.752941 0.721569 0.219608
0.627451 0.721569 0.219608
0.501961 0.721569 0.219608
0.376471 0.721569 0.219608
0.250980 0.721569 0.219608
0.125490 0.721569 0.219608
0.000000 0.627451 0.219608
0.878431 0.596078 0.219608
0.752941 0.596078 0.219608
0.627451 0.596078 0.219608
0.501961 0.596078 0.219608
0.376471 0.596078 0.219608
0.250980 0.596078 0.219608
0.125490 0.596078 0.219608
0.000000 0.000000 0.000000
0.878431 0.470588 0.219608
0.752941 0.470588 0.219608
0.627451 0.470588 0.219608
0.501961 0.470588 0.219608
0.376471 0.470588 0.219608
0.250980 0.470588 0.219608
0.125490 0.470588 0.219608
0.000000 0.376471 0.219608
0.878431 0.345098 0.219608
0.752941 0.345098 0.219608
0.627451 0.345098 0.219608
0.501961 0.345098 0.219608
0.376471 0.345098 0.219608
0.250980 0.345098 0.219608
0.125490 0.345098 0.219608
0.000000 0.000000 0.000000
0.878431 0.219608 0.125490
0.752941 0.219608 0.125490
0.627451 0.219608 0.125490
0.501961 0.219608 0.125490
0.376471 0.219608 0.125490
0.250980 0.219608 0.125490
0.125490 0.219608 0.125490
0.000000 0.125490 0.125490
0.878431 0.094118 0.125490
0.752941 0.094118 0.125490
0.627451 0.094118 0.125490
0.501961 0.094118 0.125490
0.376471 0.094118 0.125490
0.250980 0.094118 0.125490
0.125490 0.094118 0.125490
0.000000 0.000000 0.000000
0.878431 0.972549 0.094118
0.752941 0.972549 0.094118
0.627451 0.972549 0.094118
0.501961 0.972549 0.094118
0.376471 0.972549 0.094118
0.250980 0.972549 0.094118
0.125490 0.972549 0.094118
0.000000 0.878431 0.094118
0.878431 0.847059 0.094118
0.752941 0.847059 0.094118
0.627451 0.847059 0.094118
0.501961 0.847059 0.094118
0.376471 0.847059 0.094118
0.250980 0.847059 0.094118
0.125490 0.847059 0.094118
0.000000 0.000000 0.000000
0.878431 0.721569 0.094118
0.752941 0.721569 0.094118
0.627451 0.721569 0.094118
0.501961 0.721569 0.094118
0.376471 0.721569 0.094118
0.250980 0.721569 0.094118
0.125490 0.721569 0.094118
0.000000 0.627451 0.094118
0.878431 0.596078 0.094118
0.752941 0.596078 0.094118
0.627451 0.596078 0.094118
0.501961 0.596078 0.094118
0.376471 0.596078 0.094118
0.250980 0.596078 0.094118
0.125490 0.596078 0.094118
0.000000 0.000000 0.000000
0.878431 0.470588 0.094118
0.752941 0.470588 0.094118
0.627451 0.470588 0.094118
0.501961 0.470588 0.094118
0.376471 0.470588 0.094118
0.250980 0.470588 0.094118
0.125490 0.470588 0.094118
0.000000 0.376471 0.094118
0.878431 0.345098 0.094118
0.752941 0.345098 0.094118
0.627451 0.345098 0.094118
0.501961 0.345098 0.094118
0.376471 0.345098 0.094118
0.250980 0.345098 0.094118
0.125490 0.345098 0.094118
