cube.CUBE
#Generated by wwww.onlinelutcreator.com 
LUT_3D_SIZE 32 
0.000000 0.000000 0.000000
0.000000 0.000000 0.000000
0.000000 0.000000 0.000000
0.000000 0.000000 0.000000
0.000000 0.000000 0.000000
0.000000 0.000000 0.000000
0.000000 0.000000 0.000000
0.000000 0.000000 0.000000
0.000000 0.000000 0.000000
0.000000 0.000000 0.000000
0.000000 0.000000 0.000000
0.000000 0.000000 0.000000
0.000000 0.000000 0.000000
0.000000 0.000000 0.000000
0.000000 0.000000 0.000000
0.000000 0.000000 0.000000
0.000000 0.000000 0.000000
0.000000 0.000000 0.000000
0.000000 0.000000 0.000000
0.000000 0.000000 0.000000
0.000000 0.000000 0.000000
0.000000 0.000000 0.000000
0.000000 0.000000 0.000000
0.000000 0.000000 0.000000
0.000000 0.000000 0.000000
0.000000 0.000000 0.000000
0.000000 0.000000 0.000000
0.000000 0.000000 0.000000
0.000000 0.000000 0.000000
0.000000 0.000000 0.000000
0.000000 0.000000 0.000000
0.000000 0.000000 0.000000
0.000000 0.000000 0.000000
0.000000 0.000000 0.000000
0.000000 0.000000 0.000000
0.000000 0.000000 0.000000
0.000000 0.000000 0.000000
0.000000 0.000000 0.000000
0.000000 0.000000 0.000000
0.000000 0.000000 0.000000
0.000000 0.000000 0.000000
0.000000 0.000000 0.000000
0.000000 0.000000 0.000000
0.000000 0.000000 0.000000
0.000000 0.000000 0.000000
0.000000 0.000000 0.000000
0.000000 0.000000 0.000000
0.000000 0.000000 0.000000
0.000000 0.000000 0.000000
0.000000 0.000000 0.000000
0.000000 0.000000 0.000000
0.000000 0.000000 0.000000
0.000000 0.000000 0.000000
0.000000 0.000000 0.000000
0.000000 0.000000 0.000000
0.000000 0.000000 0.000000
0.000000 0.000000 0.000000
0.000000 0.000000 0.000000
0.000000 0.000000 0.000000
0.000000 0.000000 0.000000
0.000000 0.000000 0.000000
0.000000 0.000000 0.000000
0.000000 0.000000 0.000000
0.000000 0.000000 0.000000
0.000000 0.000000 0.000000
0.000000 0.000000 0.000000
0.000000 0.000000 0.000000
0.000000 0.000000 0.000000
0.000000 0.000000 0.000000
0.000000 0.000000 0.000000
0.000000 0.000000 0.000000
0.000000 0.000000 0.000000
0.000000 0.000000 0.000000
0.000000 0.000000 0.000000
0.000000 0.000000 0.000000
0.000000 0.000000 0.000000
0.000000 0.000000 0.000000
0.000000 0.000000 0.000000
0.000000 0.000000 0.000000
0.000000 0.000000 0.000000
0.000000 0.000000 0.000000
0.000000 0.000000 0.000000
0.000000 0.000000 0.000000
0.000000 0.000000 0.000000
0.000000 0.000000 0.000000
0.000000 0.000000 0.000000
0.000000 0.000000 0.000000
0.000000 0.000000 0.000000
0.000000 0.000000 0.000000
0.000000 0.000000 0.000000
0.000000 0.000000 0.000000
0.000000 0.000000 0.000000
0.000000 0.000000 0.000000
0.000000 0.000000 0.000000
0.000000 0.000000 0.000000
0.000000 0.000000 0.000000
0.000000 0.000000 0.000000
0.000000 0.000000 0.000000
0.000000 0.000000 0.000000
0.000000 0.000000 0.000000
0.000000 0.000000 0.000000
0.000000 0.000000 0.000000
0.000000 0.000000 0.000000
0.000000 0.000000 0.000000
0.000000 0.000000 0.000000
0.000000 0.000000 0.000000
0.000000 0.000000 0.000000
0.000000 0.000000 0.000000
0.000000 0.000000 0.000000
0.000000 0.000000 0.000000
0.000000 0.000000 0.000000
0.000000 0.000000 0.000000
0.000000 0.000000 0.000000
0.000000 0.000000 0.000000
0.000000 0.000000 0.000000
0.000000 0.000000 0.000000
0.000000 0.000000 0.000000
0.000000 0.000000 0.000000
0.000000 0.000000 0.000000
0.000000 0.000000 0.000000
0.000000 0.000000 0.000000
0.000000 0.000000 0.000000
0.000000 0.000000 0.000000
0.000000 0.000000 0.000000
0.000000 0.000000 0.000000
0.000000 0.000000 0.000000
0.000000 0.000000 0.000000
0.000000 0.000000 0.000000
0.000000 0.000000 0.000000
0.000000 0.000000 0.000000
0.000000 0.000000 0.000000
0.000000 0.000000 0.000000
0.000000 0.000000 0.000000
0.000000 0.000000 0.000000
0.000000 0.000000 0.000000
0.000000 0.000000 0.000000
0.000000 0.000000 0.000000
0.000000 0.000000 0.000000
0.000000 0.000000 0.000000
0.000000 0.000000 0.000000
0.000000 0.000000 0.000000
0.000000 0.000000 0.000000
0.000000 0.000000 0.000000
0.000000 0.000000 0.000000
0.000000 0.000000 0.000000
0.000000 0.000000 0.000000
0.000000 0.000000 0.000000
0.000000 0.000000 0.000000
0.000000 0.000000 0.000000
0.000000 0.000000 0.000000
0.000000 0.000000 0.000000
0.000000 0.000000 0.000000
0.000000 0.000000 0.000000
0.000000 0.000000 0.000000
0.000000 0.000000 0.000000
0.000000 0.000000 0.000000
0.000000 0.000000 0.000000
0.000000 0.000000 0.000000
0.000000 0.000000 0.000000
0.000000 0.000000 0.000000
0.000000 0.000000 0.000000
0.000000 0.000000 0.000000
0.000000 0.000000 0.000000
0.000000 0.000000 0.000000
0.000000 0.000000 0.000000
0.000000 0.000000 0.000000
0.000000 0.000000 0.000000
0.000000 0.000000 0.000000
0.000000 0.000000 0.000000
0.000000 0.000000 0.000000
0.000000 0.000000 0.000000
0.000000 0.000000 0.000000
0.000000 0.000000 0.000000
0.000000 0.000000 0.000000
0.000000 0.000000 0.000000
0.000000 0.000000 0.000000
0.000000 0.000000 0.000000
0.000000 0.000000 0.000000
0.000000 0.000000 0.000000
0.000000 0.000000 0.000000
0.000000 0.000000 0.000000
0.000000 0.000000 0.000000
0.000000 0.000000 0.000000
0.000000 0.000000 0.000000
0.000000 0.000000 0.000000
0.000000 0.000000 0.000000
0.000000 0.000000 0.000000
0.000000 0.000000 0.000000
0.000000 0.000000 0.000000
0.000000 0.000000 0.000000
0.000000 0.000000 0.000000
0.000000 0.000000 0.000000
0.000000 0.000000 0.000000
0.000000 0.000000 0.000000
0.000000 0.000000 0.000000
0.000000 0.000000 0.000000
0.000000 0.000000 0.000000
0.000000 0.000000 0.000000
0.000000 0.000000 0.000000
0.000000 0.000000 0.000000
0.000000 0.000000 0.000000
0.000000 0.000000 0.000000
0.000000 0.000000 0.000000
0.000000 0.000000 0.000000
0.000000 0.000000 0.000000
0.000000 0.000000 0.000000
0.000000 0.000000 0.000000
0.000000 0.000000 0.000000
0.000000 0.000000 0.000000
0.000000 0.000000 0.000000
0.000000 0.000000 0.000000
0.000000 0.000000 0.000000
0.000000 0.000000 0.000000
0.000000 0.000000 0.000000
0.000000 0.000000 0.000000
0.000000 0.000000 0.000000
0.000000 0.000000 0.000000
0.000000 0.000000 0.000000
0.000000 0.000000 0.000000
0.000000 0.000000 0.000000
0.000000 0.000000 0.000000
0.000000 0.000000 0.000000
0.000000 0.000000 0.000000
0.000000 0.000000 0.000000
0.000000 0.000000 0.000000
0.000000 0.000000 0.000000
0.000000 0.000000 0.000000
0.000000 0.000000 0.000000
0.000000 0.000000 0.000000
0.000000 0.000000 0.000000
0.000000 0.000000 0.000000
0.000000 0.000000 0.000000
0.000000 0.000000 0.000000
0.000000 0.000000 0.000000
0.000000 0.000000 0.000000
0.000000 0.000000 0.000000
0.000000 0.000000 0.000000
0.000000 0.000000 0.000000
0.000000 0.000000 0.000000
0.000000 0.000000 0.000000
0.000000 0.000000 0.000000
0.000000 0.000000 0.000000
0.000000 0.000000 0.000000
0.000000 0.000000 0.000000
0.000000 0.000000 0.000000
0.000000 0.000000 0.000000
0.000000 0.000000 0.000000
0.000000 0.000000 0.000000
0.000000 0.000000 0.000000
0.000000 0.000000 0.000000
0.000000 0.000000 0.000000
0.000000 0.000000 0.000000
0.000000 0.000000 0.000000
0.000000 0.000000 0.000000
0.000000 0.000000 0.000000
0.000000 0.000000 0.000000
0.000000 0.000000 0.000000
0.972549 0.972549 0.972549
0.941176 0.972549 0.972549
0.909804 0.972549 0.972549
0.878431 0.972549 0.972549
0.847059 0.972549 0.972549
0.815686 0.972549 0.972549
0.784314 0.972549 0.972549
0.752941 0.972549 0.972549
0.721569 0.972549 0.972549
0.690196 0.972549 0.972549
0.658824 0.972549 0.972549
0.627451 0.972549 0.972549
0.596078 0.972549 0.972549
0.564706 0.972549 0.972549
0.533333 0.972549 0.972549
0.501961 0.972549 0.972549
0.470588 0.972549 0.972549
0.439216 0.972549 0.972549
0.407843 0.972549 0.972549
0.376471 0.972549 0.972549
0.345098 0.972549 0.972549
0.313725 0.972549 0.972549
0.282353 0.972549 0.972549
0.250980 0.972549 0.972549
0.219608 0.972549 0.972549
0.188235 0.972549 0.972549
0.156863 0.972549 0.972549
0.125490 0.972549 0.972549
0.094118 0.972549 0.972549
0.062745 0.972549 0.972549
0.031373 0.972549 0.972549
0.000000 0.972549 0.972549
0.972549 0.941176 0.972549
0.941176 0.941176 0.972549
0.909804 0.941176 0.972549
0.878431 0.941176 0.972549
0.847059 0.941176 0.972549
0.815686 0.941176 0.972549
0.784314 0.941176 0.972549
0.752941 0.941176 0.972549
0.721569 0.941176 0.972549
0.690196 0.941176 0.972549
0.658824 0.941176 0.972549
0.627451 0.941176 0.972549
0.596078 0.941176 0.972549
0.564706 0.941176 0.972549
0.533333 0.941176 0.972549
0.501961 0.941176 0.972549
0.470588 0.941176 0.972549
0.439216 0.941176 0.972549
0.407843 0.941176 0.972549
0.376471 0.941176 0.972549
0.345098 0.941176 0.972549
0.313725 0.941176 0.972549
0.282353 0.941176 0.972549
0.250980 0.941176 0.972549
0.219608 0.941176 0.972549
0.188235 0.941176 0.972549
0.156863 0.941176 0.972549
0.125490 0.941176 0.972549
0.094118 0.941176 0.972549
0.062745 0.941176 0.972549
0.031373 0.941176 0.972549
0.000000 0.941176 0.972549
0.972549 0.909804 0.972549
0.941176 0.909804 0.972549
0.909804 0.909804 0.972549
0.878431 0.909804 0.972549
0.847059 0.909804 0.972549
0.815686 0.909804 0.972549
0.784314 0.909804 0.972549
0.752941 0.909804 0.972549
0.721569 0.909804 0.972549
0.690196 0.909804 0.972549
0.658824 0.909804 0.972549
0.627451 0.909804 0.972549
0.596078 0.909804 0.972549
0.564706 0.909804 0.972549
0.533333 0.909804 0.972549
0.501961 0.909804 0.972549
0.470588 0.909804 0.972549
0.439216 0.909804 0.972549
0.407843 0.909804 0.972549
0.376471 0.909804 0.972549
0.345098 0.909804 0.972549
0.313725 0.909804 0.972549
0.282353 0.909804 0.972549
0.250980 0.909804 0.972549
0.219608 0.909804 0.972549
0.188235 0.909804 0.972549
0.156863 0.909804 0.972549
0.125490 0.909804 0.972549
0.094118 0.909804 0.972549
0.062745 0.909804 0.972549
0.031373 0.909804 0.972549
0.000000 0.909804 0.972549
0.972549 0.878431 0.972549
0.941176 0.878431 0.972549
0.909804 0.878431 0.972549
0.878431 0.878431 0.972549
0.847059 0.878431 0.972549
0.815686 0.878431 0.972549
0.784314 0.878431 0.972549
0.752941 0.878431 0.972549
0.721569 0.878431 0.972549
0.690196 0.878431 0.972549
0.658824 0.878431 0.972549
0.627451 0.878431 0.972549
0.596078 0.878431 0.972549
0.564706 0.878431 0.972549
0.533333 0.878431 0.972549
0.501961 0.878431 0.972549
0.470588 0.878431 0.972549
0.439216 0.878431 0.972549
0.407843 0.878431 0.972549
0.376471 0.878431 0.972549
0.345098 0.878431 0.972549
0.313725 0.878431 0.972549
0.282353 0.878431 0.972549
0.250980 0.878431 0.972549
0.219608 0.878431 0.972549
0.188235 0.878431 0.972549
0.156863 0.878431 0.972549
0.125490 0.878431 0.972549
0.094118 0.878431 0.972549
0.062745 0.878431 0.972549
0.031373 0.878431 0.972549
0.000000 0.878431 0.972549
0.972549 0.847059 0.972549
0.941176 0.847059 0.972549
0.909804 0.847059 0.972549
0.878431 0.847059 0.972549
0.847059 0.847059 0.972549
0.815686 0.847059 0.972549
0.784314 0.847059 0.972549
0.752941 0.847059 0.972549
0.721569 0.847059 0.972549
0.690196 0.847059 0.972549
0.658824 0.847059 0.972549
0.627451 0.847059 0.972549
0.596078 0.847059 0.972549
0.564706 0.847059 0.972549
0.533333 0.847059 0.972549
0.501961 0.847059 0.972549
0.470588 0.847059 0.972549
0.439216 0.847059 0.972549
0.407843 0.847059 0.972549
0.376471 0.847059 0.972549
0.345098 0.847059 0.972549
0.313725 0.847059 0.972549
0.282353 0.847059 0.972549
0.250980 0.847059 0.972549
0.219608 0.847059 0.972549
0.188235 0.847059 0.972549
0.156863 0.847059 0.972549
0.125490 0.847059 0.972549
0.094118 0.847059 0.972549
0.062745 0.847059 0.972549
0.031373 0.847059 0.972549
0.000000 0.847059 0.972549
0.972549 0.815686 0.972549
0.941176 0.815686 0.972549
0.909804 0.815686 0.972549
0.878431 0.815686 0.972549
0.847059 0.815686 0.972549
0.815686 0.815686 0.972549
0.784314 0.815686 0.972549
0.752941 0.815686 0.972549
0.721569 0.815686 0.972549
0.690196 0.815686 0.972549
0.658824 0.815686 0.972549
0.627451 0.815686 0.972549
0.596078 0.815686 0.972549
0.564706 0.815686 0.972549
0.533333 0.815686 0.972549
0.501961 0.815686 0.972549
0.470588 0.815686 0.972549
0.439216 0.815686 0.972549
0.407843 0.815686 0.972549
0.376471 0.815686 0.972549
0.345098 0.815686 0.972549
0.313725 0.815686 0.972549
0.282353 0.815686 0.972549
0.250980 0.815686 0.972549
0.219608 0.815686 0.972549
0.188235 0.815686 0.972549
0.156863 0.815686 0.972549
0.125490 0.815686 0.972549
0.094118 0.815686 0.972549
0.062745 0.815686 0.972549
0.031373 0.815686 0.972549
0.000000 0.815686 0.972549
0.972549 0.784314 0.972549
0.941176 0.784314 0.972549
0.909804 0.784314 0.972549
0.878431 0.784314 0.972549
0.847059 0.784314 0.972549
0.815686 0.784314 0.972549
0.784314 0.784314 0.972549
0.752941 0.784314 0.972549
0.721569 0.784314 0.972549
0.690196 0.784314 0.972549
0.658824 0.784314 0.972549
0.627451 0.784314 0.972549
0.596078 0.784314 0.972549
0.564706 0.784314 0.972549
0.533333 0.784314 0.972549
0.501961 0.784314 0.972549
0.470588 0.784314 0.972549
0.439216 0.784314 0.972549
0.407843 0.784314 0.972549
0.376471 0.784314 0.972549
0.345098 0.784314 0.972549
0.313725 0.784314 0.972549
0.282353 0.784314 0.972549
0.250980 0.784314 0.972549
0.219608 0.784314 0.972549
0.188235 0.784314 0.972549
0.156863 0.784314 0.972549
0.125490 0.784314 0.972549
0.094118 0.784314 0.972549
0.062745 0.784314 0.972549
0.031373 0.784314 0.972549
0.000000 0.784314 0.972549
0.972549 0.752941 0.972549
0.941176 0.752941 0.972549
0.909804 0.752941 0.972549
0.878431 0.752941 0.972549
0.847059 0.752941 0.972549
0.815686 0.752941 0.972549
0.784314 0.752941 0.972549
0.752941 0.752941 0.972549
0.721569 0.752941 0.972549
0.690196 0.752941 0.972549
0.658824 0.752941 0.972549
0.627451 0.752941 0.972549
0.596078 0.752941 0.972549
0.564706 0.752941 0.972549
0.533333 0.752941 0.972549
0.501961 0.752941 0.972549
0.470588 0.752941 0.972549
0.439216 0.752941 0.972549
0.407843 0.752941 0.972549
0.376471 0.752941 0.972549
0.345098 0.752941 0.972549
0.313725 0.752941 0.972549
0.282353 0.752941 0.972549
0.250980 0.752941 0.972549
0.219608 0.752941 0.972549
0.188235 0.752941 0.972549
0.156863 0.752941 0.972549
0.125490 0.752941 0.972549
0.094118 0.752941 0.972549
0.062745 0.752941 0.972549
0.031373 0.752941 0.972549
0.000000 0.000000 0.000000
0.972549 0.721569 0.972549
0.941176 0.721569 0.972549
0.909804 0.721569 0.972549
0.878431 0.721569 0.972549
0.847059 0.721569 0.972549
0.815686 0.721569 0.972549
0.784314 0.721569 0.972549
0.752941 0.721569 0.972549
0.721569 0.721569 0.972549
0.690196 0.721569 0.972549
0.658824 0.721569 0.972549
0.627451 0.721569 0.972549
0.596078 0.721569 0.972549
0.564706 0.721569 0.972549
0.533333 0.721569 0.972549
0.501961 0.721569 0.972549
0.470588 0.721569 0.972549
0.439216 0.721569 0.972549
0.407843 0.721569 0.972549
0.376471 0.721569 0.972549
0.345098 0.721569 0.972549
0.313725 0.721569 0.972549
0.282353 0.721569 0.972549
0.250980 0.721569 0.972549
0.219608 0.721569 0.972549
0.188235 0.721569 0.972549
0.156863 0.721569 0.972549
0.125490 0.721569 0.972549
0.094118 0.721569 0.972549
0.062745 0.721569 0.972549
0.031373 0.721569 0.972549
0.000000 0.721569 0.972549
0.972549 0.690196 0.972549
0.941176 0.690196 0.972549
0.909804 0.690196 0.972549
0.878431 0.690196 0.972549
0.847059 0.690196 0.972549
0.815686 0.690196 0.972549
0.784314 0.690196 0.972549
0.752941 0.690196 0.972549
0.721569 0.690196 0.972549
0.690196 0.690196 0.972549
0.658824 0.690196 0.972549
0.627451 0.690196 0.972549
0.596078 0.690196 0.972549
0.564706 0.690196 0.972549
0.533333 0.690196 0.972549
0.501961 0.690196 0.972549
0.470588 0.690196 0.972549
0.439216 0.690196 0.972549
0.407843 0.690196 0.972549
0.376471 0.690196 0.972549
0.345098 0.690196 0.972549
0.313725 0.690196 0.972549
0.282353 0.690196 0.972549
0.250980 0.690196 0.972549
0.219608 0.690196 0.972549
0.188235 0.690196 0.972549
0.156863 0.690196 0.972549
0.125490 0.690196 0.972549
0.094118 0.690196 0.972549
0.062745 0.690196 0.972549
0.031373 0.690196 0.972549
0.000000 0.690196 0.972549
0.972549 0.658824 0.972549
0.941176 0.658824 0.972549
0.909804 0.658824 0.972549
0.878431 0.658824 0.972549
0.847059 0.658824 0.972549
0.815686 0.658824 0.972549
0.784314 0.658824 0.972549
0.752941 0.658824 0.972549
0.721569 0.658824 0.972549
0.690196 0.658824 0.972549
0.658824 0.658824 0.972549
0.627451 0.658824 0.972549
0.596078 0.658824 0.972549
0.564706 0.658824 0.972549
0.533333 0.658824 0.972549
0.501961 0.658824 0.972549
0.470588 0.658824 0.972549
0.439216 0.658824 0.972549
0.407843 0.658824 0.972549
0.376471 0.658824 0.972549
0.345098 0.658824 0.972549
0.313725 0.658824 0.972549
0.282353 0.658824 0.972549
0.250980 0.658824 0.972549
0.219608 0.658824 0.972549
0.188235 0.658824 0.972549
0.156863 0.658824 0.972549
0.125490 0.658824 0.972549
0.094118 0.658824 0.972549
0.062745 0.658824 0.972549
0.031373 0.658824 0.972549
0.000000 0.658824 0.972549
0.972549 0.627451 0.972549
0.941176 0.627451 0.972549
0.909804 0.627451 0.972549
0.878431 0.627451 0.972549
0.847059 0.627451 0.972549
0.815686 0.627451 0.972549
0.784314 0.627451 0.972549
0.752941 0.627451 0.972549
0.721569 0.627451 0.972549
0.690196 0.627451 0.972549
0.658824 0.627451 0.972549
0.627451 0.627451 0.972549
0.596078 0.627451 0.972549
0.564706 0.627451 0.972549
0.533333 0.627451 0.972549
0.501961 0.627451 0.972549
0.470588 0.627451 0.972549
0.439216 0.627451 0.972549
0.407843 0.627451 0.972549
0.376471 0.627451 0.972549
0.345098 0.627451 0.972549
0.313725 0.627451 0.972549
0.282353 0.627451 0.972549
0.250980 0.627451 0.972549
0.219608 0.627451 0.972549
0.188235 0.627451 0.972549
0.156863 0.627451 0.972549
0.125490 0.627451 0.972549
0.094118 0.627451 0.972549
0.062745 0.627451 0.972549
0.031373 0.627451 0.972549
0.000000 0.627451 0.972549
0.972549 0.596078 0.972549
0.941176 0.596078 0.972549
0.909804 0.596078 0.972549
0.878431 0.596078 0.972549
0.847059 0.596078 0.972549
0.815686 0.596078 0.972549
0.784314 0.596078 0.972549
0.752941 0.596078 0.972549
0.721569 0.596078 0.972549
0.690196 0.596078 0.972549
0.658824 0.596078 0.972549
0.627451 0.596078 0.972549
0.596078 0.596078 0.972549
0.564706 0.596078 0.972549
0.533333 0.596078 0.972549
0.501961 0.596078 0.972549
0.470588 0.596078 0.972549
0.439216 0.596078 0.972549
0.407843 0.596078 0.972549
0.376471 0.596078 0.972549
0.345098 0.596078 0.972549
0.313725 0.596078 0.972549
0.282353 0.596078 0.972549
0.250980 0.596078 0.972549
0.219608 0.596078 0.972549
0.188235 0.596078 0.972549
0.156863 0.596078 0.972549
0.125490 0.596078 0.972549
0.094118 0.596078 0.972549
0.062745 0.596078 0.972549
0.031373 0.596078 0.972549
0.000000 0.596078 0.972549
0.972549 0.564706 0.972549
0.941176 0.564706 0.972549
0.909804 0.564706 0.972549
0.878431 0.564706 0.972549
0.847059 0.564706 0.972549
0.815686 0.564706 0.972549
0.784314 0.564706 0.972549
0.752941 0.564706 0.972549
0.721569 0.564706 0.972549
0.690196 0.564706 0.972549
0.658824 0.564706 0.972549
0.627451 0.564706 0.972549
0.596078 0.564706 0.972549
0.564706 0.564706 0.972549
0.533333 0.564706 0.972549
0.501961 0.564706 0.972549
0.470588 0.564706 0.972549
0.439216 0.564706 0.972549
0.407843 0.564706 0.972549
0.376471 0.564706 0.972549
0.345098 0.564706 0.972549
0.313725 0.564706 0.972549
0.282353 0.564706 0.972549
0.250980 0.564706 0.972549
0.219608 0.564706 0.972549
0.188235 0.564706 0.972549
0.156863 0.564706 0.972549
0.125490 0.564706 0.972549
0.094118 0.564706 0.972549
0.062745 0.564706 0.972549
0.031373 0.564706 0.972549
0.000000 0.564706 0.972549
0.972549 0.533333 0.972549
0.941176 0.533333 0.972549
0.909804 0.533333 0.972549
0.878431 0.533333 0.972549
0.847059 0.533333 0.972549
0.815686 0.533333 0.972549
0.784314 0.533333 0.972549
0.752941 0.533333 0.972549
0.721569 0.533333 0.972549
0.690196 0.533333 0.972549
0.658824 0.533333 0.972549
0.627451 0.533333 0.972549
0.596078 0.533333 0.972549
0.564706 0.533333 0.972549
0.533333 0.533333 0.972549
0.501961 0.533333 0.972549
0.470588 0.533333 0.972549
0.439216 0.533333 0.972549
0.407843 0.533333 0.972549
0.376471 0.533333 0.972549
0.345098 0.533333 0.972549
0.313725 0.533333 0.972549
0.282353 0.533333 0.972549
0.250980 0.533333 0.972549
0.219608 0.533333 0.972549
0.188235 0.533333 0.972549
0.156863 0.533333 0.972549
0.125490 0.533333 0.972549
0.094118 0.533333 0.972549
0.062745 0.533333 0.972549
0.031373 0.533333 0.972549
0.000000 0.533333 0.972549
0.972549 0.501961 0.972549
0.941176 0.501961 0.972549
0.909804 0.501961 0.972549
0.878431 0.501961 0.972549
0.847059 0.501961 0.972549
0.815686 0.501961 0.972549
0.784314 0.501961 0.972549
0.752941 0.501961 0.972549
0.721569 0.501961 0.972549
0.690196 0.501961 0.972549
0.658824 0.501961 0.972549
0.627451 0.501961 0.972549
0.596078 0.501961 0.972549
0.564706 0.501961 0.972549
0.533333 0.501961 0.972549
0.501961 0.501961 0.972549
0.470588 0.501961 0.972549
0.439216 0.501961 0.972549
0.407843 0.501961 0.972549
0.376471 0.501961 0.972549
0.345098 0.501961 0.972549
0.313725 0.501961 0.972549
0.282353 0.501961 0.972549
0.250980 0.501961 0.972549
0.219608 0.501961 0.972549
0.188235 0.501961 0.972549
0.156863 0.501961 0.972549
0.125490 0.501961 0.972549
0.094118 0.501961 0.972549
0.062745 0.501961 0.972549
0.031373 0.501961 0.972549
0.000000 0.000000 0.000000
0.972549 0.470588 0.972549
0.941176 0.470588 0.972549
0.909804 0.470588 0.972549
0.878431 0.470588 0.972549
0.847059 0.470588 0.972549
0.815686 0.470588 0.972549
0.784314 0.470588 0.972549
0.752941 0.470588 0.972549
0.721569 0.470588 0.972549
0.690196 0.470588 0.972549
0.658824 0.470588 0.972549
0.627451 0.470588 0.972549
0.596078 0.470588 0.972549
0.564706 0.470588 0.972549
0.533333 0.470588 0.972549
0.501961 0.470588 0.972549
0.470588 0.470588 0.972549
0.439216 0.470588 0.972549
0.407843 0.470588 0.972549
0.376471 0.470588 0.972549
0.345098 0.470588 0.972549
0.313725 0.470588 0.972549
0.282353 0.470588 0.972549
0.250980 0.470588 0.972549
0.219608 0.470588 0.972549
0.188235 0.470588 0.972549
0.156863 0.470588 0.972549
0.125490 0.470588 0.972549
0.094118 0.470588 0.972549
0.062745 0.470588 0.972549
0.031373 0.470588 0.972549
0.000000 0.470588 0.972549
0.972549 0.439216 0.972549
0.941176 0.439216 0.972549
0.909804 0.439216 0.972549
0.878431 0.439216 0.972549
0.847059 0.439216 0.972549
0.815686 0.439216 0.972549
0.784314 0.439216 0.972549
0.752941 0.439216 0.972549
0.721569 0.439216 0.972549
0.690196 0.439216 0.972549
0.658824 0.439216 0.972549
0.627451 0.439216 0.972549
0.596078 0.439216 0.972549
0.564706 0.439216 0.972549
0.533333 0.439216 0.972549
0.501961 0.439216 0.972549
0.470588 0.439216 0.972549
0.439216 0.439216 0.972549
0.407843 0.439216 0.972549
0.376471 0.439216 0.972549
0.345098 0.439216 0.972549
0.313725 0.439216 0.972549
0.282353 0.439216 0.972549
0.250980 0.439216 0.972549
0.219608 0.439216 0.972549
0.188235 0.439216 0.972549
0.156863 0.439216 0.972549
0.125490 0.439216 0.972549
0.094118 0.439216 0.972549
0.062745 0.439216 0.972549
0.031373 0.439216 0.972549
0.000000 0.439216 0.972549
0.972549 0.407843 0.972549
0.941176 0.407843 0.972549
0.909804 0.407843 0.972549
0.878431 0.407843 0.972549
0.847059 0.407843 0.972549
0.815686 0.407843 0.972549
0.784314 0.407843 0.972549
0.752941 0.407843 0.972549
0.721569 0.407843 0.972549
0.690196 0.407843 0.972549
0.658824 0.407843 0.972549
0.627451 0.407843 0.972549
0.596078 0.407843 0.972549
0.564706 0.407843 0.972549
0.533333 0.407843 0.972549
0.501961 0.407843 0.972549
0.470588 0.407843 0.972549
0.439216 0.407843 0.972549
0.407843 0.407843 0.972549
0.376471 0.407843 0.972549
0.345098 0.407843 0.972549
0.313725 0.407843 0.972549
0.282353 0.407843 0.972549
0.250980 0.407843 0.972549
0.219608 0.407843 0.972549
0.188235 0.407843 0.972549
0.156863 0.407843 0.972549
0.125490 0.407843 0.972549
0.094118 0.407843 0.972549
0.062745 0.407843 0.972549
0.031373 0.407843 0.972549
0.000000 0.407843 0.972549
0.972549 0.376471 0.972549
0.941176 0.376471 0.972549
0.909804 0.376471 0.972549
0.878431 0.376471 0.972549
0.847059 0.376471 0.972549
0.815686 0.376471 0.972549
0.784314 0.376471 0.972549
0.752941 0.376471 0.972549
0.721569 0.376471 0.972549
0.690196 0.376471 0.972549
0.658824 0.376471 0.972549
0.627451 0.376471 0.972549
0.596078 0.376471 0.972549
0.564706 0.376471 0.972549
0.533333 0.376471 0.972549
0.501961 0.376471 0.972549
0.470588 0.376471 0.972549
0.439216 0.376471 0.972549
0.407843 0.376471 0.972549
0.376471 0.376471 0.972549
0.345098 0.376471 0.972549
