lutCreatorJs.cube
#Generated by lutCreator.js
#Coded by SirSerch
#https://github.com/SirSerch/LutCreatorJs
TITLE lutCreatorJs_25
LUT_3D_SIZE 9
0.000000 1.000000 1.000000
0.125490 1.000000 1.000000
0.250980 1.000000 1.000000
0.376471 1.000000 1.000000
0.501961 1.000000 1.000000
0.623529 1.000000 1.000000
0.749020 1.000000 1.000000
0.874510 1.000000 1.000000
1.000000 1.000000 1.000000
0.000000 0.874510 1.000000
0.125490 0.874510 1.000000
0.250980 0.874510 1.000000
0.376471 0.874510 1.000000
0.501961 0.874510 1.000000
0.623529 0.874510 1.000000
0.749020 0.874510 1.000000
0.874510 0.874510 1.000000
1.000000 0.874510 1.000000
0.000000 0.749020 1.000000
0.125490 0.749020 1.000000
0.250980 0.749020 1.000000
0.376471 0.749020 1.000000
0.501961 0.749020 1.000000
0.623529 0.749020 1.000000
0.749020 0.749020 1.000000
0.874510 0.749020 1.000000
1.000000 0.749020 1.000000
0.000000 0.623529 1.000000
0.125490 0.623529 1.000000
0.250980 0.623529 1.000000
0.376471 0.623529 1.000000
0.501961 0.623529 1.000000
0.623529 0.623529 1.000000
0.749020 0.623529 1.000000
0.874510 0.623529 1.000000
1.000000 0.623529 1.000000
0.000000 0.498039 1.000000
0.125490 0.498039 1.000000
0.250980 0.498039 1.000000
0.376471 0.498039 1.000000
0.501961 0.498039 1.000000
0.623529 0.498039 1.000000
0.749020 0.498039 1.000000
0.874510 0.498039 1.000000
1.000000 0.498039 1.000000
0.000000 0.376471 1.000000
0.125490 0.376471 1.000000
0.250980 0.376471 1.000000
0.376471 0.376471 1.000000
0.501961 0.376471 1.000000
0.623529 0.376471 1.000000
0.749020 0.376471 1.000000
0.874510 0.376471 1.000000
1.000000 0.376471 1.000000
0.000000 0.250980 1.000000
0.125490 0.250980 1.000000
0.250980 0.250980 1.000000
0.376471 0.250980 1.000000
0.501961 0.250980 1.000000
0.623529 0.250980 1.000000
0.749020 0.250980 1.000000
0.874510 0.250980 1.000000
1.000000 0.250980 1.000000
0.000000 0.125490 1.000000
0.125490 0.125490 1.000000
0.250980 0.125490 1.000000
0.376471 0.125490 1.000000
0.501961 0.125490 1.000000
0.623529 0.125490 1.000000
0.749020 0.125490 1.000000
0.874510 0.125490 1.000000
1.000000 0.125490 1.000000
0.000000 0.000000 1.000000
0.125490 0.000000 1.000000
0.250980 0.000000 1.000000
0.376471 0.000000 1.000000
0.501961 0.000000 1.000000
0.623529 0.000000 1.000000
0.749020 0.000000 1.000000
0.874510 0.000000 1.000000
1.000000 0.000000 1.000000
0.000000 1.000000 0.874510
0.125490 1.000000 0.874510
0.250980 1.000000 0.874510
0.376471 1.000000 0.874510
0.501961 1.000000 0.874510
0.623529 1.000000 0.874510
0.749020 1.000000 0.874510
0.874510 1.000000 0.874510
1.000000 1.000000 0.874510
0.000000 0.874510 0.874510
0.125490 0.874510 0.874510
0.250980 0.874510 0.874510
0.376471 0.874510 0.874510
0.501961 0.874510 0.874510
0.623529 0.874510 0.874510
0.749020 0.874510 0.874510
0.874510 0.874510 0.874510
1.000000 0.874510 0.874510
0.000000 0.749020 0.874510
0.125490 0.749020 0.874510
0.250980 0.749020 0.874510
0.376471 0.749020 0.874510
0.501961 0.749020 0.874510
0.623529 0.749020 0.874510
0.749020 0.749020 0.874510
0.874510 0.749020 0.874510
1.000000 0.749020 0.874510
0.000000 0.623529 0.874510
0.125490 0.623529 0.874510
0.250980 0.623529 0.874510
0.376471 0.623529 0.874510
0.501961 0.623529 0.874510
0.623529 0.623529 0.874510
0.749020 0.623529 0.874510
0.874510 0.623529 0.874510
1.000000 0.623529 0.874510
0.000000 0.498039 0.874510
0.125490 0.498039 0.874510
0.250980 0.498039 0.874510
0.376471 0.498039 0.874510
0.501961 0.498039 0.874510
0.623529 0.498039 0.874510
0.749020 0.498039 0.874510
0.874510 0.498039 0.874510
1.000000 0.498039 0.874510
0.000000 0.376471 0.874510
0.125490 0.376471 0.874510
0.250980 0.376471 0.874510
0.376471 0.376471 0.874510
0.501961 0.376471 0.874510
0.623529 0.376471 0.874510
0.749020 0.376471 0.874510
0.874510 0.376471 0.874510
1.000000 0.376471 0.874510
0.000000 0.250980 0.874510
0.125490 0.250980 0.874510
0.250980 0.250980 0.874510
0.376471 0.250980 0.874510
0.501961 0.250980 0.874510
0.623529 0.250980 0.874510
0.749020 0.250980 0.874510
0.874510 0.250980 0.874510
1.000000 0.250980 0.874510
0.000000 0.125490 0.874510
0.125490 0.125490 0.874510
0.250980 0.125490 0.874510
0.376471 0.125490 0.874510
0.501961 0.125490 0.874510
0.623529 0.125490 0.874510
0.749020 0.125490 0.874510
0.874510 0.125490 0.874510
1.000000 0.125490 0.874510
0.000000 0.000000 0.874510
0.125490 0.000000 0.874510
0.250980 0.000000 0.874510
0.376471 0.000000 0.874510
0.501961 0.000000 0.874510
0.623529 0.000000 0.874510
0.749020 0.000000 0.874510
0.874510 0.000000 0.874510
1.000000 0.000000 0.874510
0.000000 1.000000 0.749020
0.125490 1.000000 0.749020
0.250980 1.000000 0.749020
0.376471 1.000000 0.749020
0.501961 1.000000 0.749020
0.623529 1.000000 0.749020
0.749020 1.000000 0.749020
0.874510 1.000000 0.749020
1.000000 1.000000 0.749020
0.000000 0.874510 0.749020
0.125490 0.874510 0.749020
0.250980 0.874510 0.749020
0.376471 0.874510 0.749020
0.501961 0.874510 0.749020
0.623529 0.874510 0.749020
0.749020 0.874510 0.749020
0.874510 0.874510 0.749020
1.000000 0.874510 0.749020
0.000000 0.749020 0.749020
0.125490 0.749020 0.749020
0.250980 0.749020 0.749020
0.376471 0.749020 0.749020
0.501961 0.749020 0.749020
0.623529 0.749020 0.749020
0.749020 0.749020 0.749020
0.874510 0.749020 0.749020
1.000000 0.749020 0.749020
0.000000 0.623529 0.749020
0.125490 0.623529 0.749020
0.250980 0.623529 0.749020
0.376471 0.623529 0.749020
0.501961 0.623529 0.749020
0.623529 0.623529 0.749020
0.749020 0.623529 0.749020
0.874510 0.623529 0.749020
1.000000 0.623529 0.749020
0.000000 0.498039 0.749020
0.125490 0.498039 0.749020
0.250980 0.498039 0.749020
0.376471 0.498039 0.749020
0.501961 0.498039 0.749020
0.623529 0.498039 0.749020
0.749020 0.498039 0.749020
0.874510 0.498039 0.749020
1.000000 0.498039 0.749020
0.000000 0.376471 0.749020
0.125490 0.376471 0.749020
0.250980 0.376471 0.749020
0.376471 0.376471 0.749020
0.501961 0.376471 0.749020
0.623529 0.376471 0.749020
0.749020 0.376471 0.749020
0.874510 0.376471 0.749020
1.000000 0.376471 0.749020
0.000000 0.250980 0.749020
0.125490 0.250980 0.749020
0.250980 0.250980 0.749020
0.376471 0.250980 0.749020
0.501961 0.250980 0.749020
0.623529 0.250980 0.749020
0.749020 0.250980 0.749020
0.874510 0.250980 0.749020
1.000000 0.250980 0.749020
0.000000 0.125490 0.749020
0.125490 0.125490 0.749020
0.250980 0.125490 0.749020
0.376471 0.125490 0.749020
0.501961 0.125490 0.749020
0.623529 0.125490 0.749020
0.749020 0.125490 0.749020
0.874510 0.125490 0.749020
1.000000 0.125490 0.749020
0.000000 0.000000 0.749020
0.125490 0.000000 0.749020
0.250980 0.000000 0.749020
0.376471 0.000000 0.749020
0.501961 0.000000 0.749020
0.623529 0.000000 0.749020
0.749020 0.000000 0.749020
0.874510 0.000000 0.749020
1.000000 0.000000 0.749020
0.000000 1.000000 0.623529
0.125490 1.000000 0.623529
0.250980 1.000000 0.623529
0.376471 1.000000 0.623529
0.501961 1.000000 0.623529
0.623529 1.000000 0.623529
0.749020 1.000000 0.623529
0.874510 1.000000 0.623529
1.000000 1.000000 0.623529
0.000000 0.874510 0.623529
0.125490 0.874510 0.623529
0.250980 0.874510 0.623529
0.376471 0.874510 0.623529
0.501961 0.874510 0.623529
0.623529 0.874510 0.623529
0.749020 0.874510 0.623529
0.874510 0.874510 0.623529
1.000000 0.874510 0.623529
0.000000 0.749020 0.623529
0.125490 0.749020 0.623529
0.250980 0.749020 0.623529
0.376471 0.749020 0.623529
0.501961 0.749020 0.623529
0.623529 0.749020 0.623529
0.749020 0.749020 0.623529
0.874510 0.749020 0.623529
1.000000 0.749020 0.623529
0.000000 0.623529 0.623529
0.125490 0.623529 0.623529
0.250980 0.623529 0.623529
0.376471 0.623529 0.623529
0.501961 0.623529 0.623529
0.623529 0.623529 0.623529
0.749020 0.623529 0.623529
0.874510 0.623529 0.623529
1.000000 0.623529 0.623529
0.000000 0.498039 0.623529
0.125490 0.498039 0.623529
0.250980 0.498039 0.623529
0.376471 0.498039 0.623529
0.501961 0.498039 0.623529
0.623529 0.498039 0.623529
0.749020 0.498039 0.623529
0.874510 0.498039 0.623529
1.000000 0.498039 0.623529
0.000000 0.376471 0.623529
0.125490 0.376471 0.623529
0.250980 0.376471 0.623529
0.376471 0.376471 0.623529
0.501961 0.376471 0.623529
0.623529 0.376471 0.623529
0.749020 0.376471 0.623529
0.874510 0.376471 0.623529
1.000000 0.376471 0.623529
0.000000 0.250980 0.623529
0.125490 0.250980 0.623529
0.250980 0.250980 0.623529
0.376471 0.250980 0.623529
0.501961 0.250980 0.623529
0.623529 0.250980 0.623529
0.749020 0.250980 0.623529
0.874510 0.250980 0.623529
1.000000 0.250980 0.623529
0.000000 0.125490 0.623529
0.125490 0.125490 0.623529
0.250980 0.125490 0.623529
0.376471 0.125490 0.623529
0.501961 0.125490 0.623529
0.623529 0.125490 0.623529
0.749020 0.125490 0.623529
0.874510 0.125490 0.623529
1.000000 0.125490 0.623529
0.000000 0.000000 0.623529
0.125490 0.000000 0.623529
0.250980 0.000000 0.623529
0.376471 0.000000 0.623529
0.501961 0.000000 0.623529
0.623529 0.000000 0.623529
0.749020 0.000000 0.623529
0.874510 0.000000 0.623529
1.000000 0.000000 0.623529
0.000000 1.000000 0.498039
0.125490 1.000000 0.498039
0.250980 1.000000 0.498039
0.376471 1.000000 0.498039
0.501961 1.000000 0.498039
0.623529 1.000000 0.498039
0.749020 1.000000 0.498039
0.874510 1.000000 0.498039
1.000000 1.000000 0.498039
0.000000 0.874510 0.498039
0.125490 0.874510 0.498039
0.250980 0.874510 0.498039
0.376471 0.874510 0.498039
0.501961 0.874510 0.498039
0.623529 0.874510 0.498039
0.749020 0.874510 0.498039
0.874510 0.874510 0.498039
1.000000 0.874510 0.498039
0.000000 0.749020 0.498039
0.125490 0.749020 0.498039
0.250980 0.749020 0.498039
0.376471 0.749020 0.498039
0.501961 0.749020 0.498039
0.623529 0.749020 0.498039
0.749020 0.749020 0.498039
0.874510 0.749020 0.498039
1.000000 0.749020 0.498039
0.000000 0.623529 0.498039
0.125490 0.623529 0.498039
0.250980 0.623529 0.498039
0.376471 0.623529 0.498039
0.501961 0.623529 0.498039
0.623529 0.623529 0.498039
0.749020 0.623529 0.498039
0.874510 0.623529 0.498039
1.000000 0.623529 0.498039
0.000000 0.498039 0.498039
0.125490 0.498039 0.498039
0.250980 0.498039 0.498039
0.376471 0.498039 0.498039
0.501961 0.498039 0.498039
0.623529 0.498039 0.498039
0.749020 0.498039 0.498039
0.874510 0.498039 0.498039
1.000000 0.498039 0.498039
0.000000 0.376471 0.498039
0.125490 0.376471 0.498039
0.250980 0.376471 0.498039
0.376471 0.376471 0.498039
0.501961 0.376471 0.498039
0.623529 0.376471 0.498039
0.749020 0.376471 0.498039
0.874510 0.376471 0.498039
1.000000 0.376471 0.498039
0.000000 0.250980 0.498039
0.125490 0.250980 0.498039
0.250980 0.250980 0.498039
0.376471 0.250980 0.498039
0.501961 0.250980 0.498039
0.623529 0.250980 0.498039
0.749020 0.250980 0.498039
0.874510 0.250980 0.498039
1.000000 0.250980 0.498039
0.000000 0.125490 0.498039
0.125490 0.125490 0.498039
0.250980 0.125490 0.498039
0.376471 0.125490 0.498039
0.501961 0.125490 0.498039
0.623529 0.125490 0.498039
0.749020 0.125490 0.498039
0.874510 0.125490 0.498039
1.000000 0.125490 0.498039
0.000000 0.000000 0.498039
0.125490 0.000000 0.498039
0.250980 0.000000 0.498039
0.376471 0.000000 0.498039
0.501961 0.000000 0.498039
0.623529 0.000000 0.498039
0.749020 0.000000 0.498039
0.874510 0.000000 0.498039
1.000000 0.000000 0.498039
0.000000 1.000000 0.376471
0.125490 1.000000 0.376471
0.250980 1.000000 0.376471
0.376471 1.000000 0.376471
0.501961 1.000000 0.376471
0.623529 1.000000 0.376471
0.749020 1.000000 0.376471
0.874510 1.000000 0.376471
1.000000 1.000000 0.376471
0.000000 0.874510 0.376471
0.125490 0.874510 0.376471
0.250980 0.874510 0.376471
0.376471 0.874510 0.376471
0.501961 0.874510 0.376471
0.623529 0.874510 0.376471
0.749020 0.874510 0.376471
0.874510 0.874510 0.376471
1.000000 0.874510 0.376471
0.000000 0.749020 0.376471
0.125490 0.749020 0.376471
0.250980 0.749020 0.376471
0.376471 0.749020 0.376471
0.501961 0.749020 0.376471
0.623529 0.749020 0.376471
0.749020 0.749020 0.376471
0.874510 0.749020 0.376471
1.000000 0.749020 0.376471
0.000000 0.623529 0.376471
0.125490 0.623529 0.376471
0.250980 0.623529 0.376471
0.376471 0.623529 0.376471
0.501961 0.623529 0.376471
0.623529 0.623529 0.376471
0.749020 0.623529 0.376471
0.874510 0.623529 0.376471
1.000000 0.623529 0.376471
0.000000 0.498039 0.376471
0.125490 0.498039 0.376471
0.250980 0.498039 0.376471
0.376471 0.498039 0.376471
0.501961 0.498039 0.376471
0.623529 0.498039 0.376471
0.749020 0.498039 0.376471
0.874510 0.498039 0.376471
1.000000 0.498039 0.376471
0.000000 0.376471 0.376471
0.125490 0.376471 0.376471
0.250980 0.376471 0.376471
0.376471 0.376471 0.376471
0.501961 0.376471 0.376471
0.623529 0.376471 0.376471
0.749020 0.376471 0.376471
0.874510 0.376471 0.376471
1.000000 0.376471 0.376471
0.000000 0.250980 0.376471
0.125490 0.250980 0.376471
0.250980 0.250980 0.376471
0.376471 0.250980 0.376471
0.501961 0.250980 0.376471
0.623529 0.250980 0.376471
0.749020 0.250980 0.376471
0.874510 0.250980 0.376471
1.000000 0.250980 0.376471
0.000000 0.125490 0.376471
0.125490 0.125490 0.376471
0.250980 0.125490 0.376471
0.376471 0.125490 0.376471
0.501961 0.125490 0.376471
0.623529 0.125490 0.376471
0.749020 0.125490 0.376471
0.874510 0.125490 0.376471
1.000000 0.125490 0.376471
0.000000 0.000000 0.376471
0.125490 0.000000 0.376471
0.250980 0.000000 0.376471
0.376471 0.000000 0.376471
0.501961 0.000000 0.376471
0.623529 0.000000 0.376471
0.749020 0.000000 0.376471
0.874510 0.000000 0.376471
1.000000 0.000000 0.376471
0.000000 1.000000 0.250980
0.125490 1.000000 0.250980
0.250980 1.000000 0.250980
0.376471 1.000000 0.250980
0.501961 1.000000 0.250980
0.623529 1.000000 0.250980
0.749020 1.000000 0.250980
0.874510 1.000000 0.250980
1.000000 1.000000 0.250980
0.000000 0.874510 0.250980
0.125490 0.874510 0.250980
0.250980 0.874510 0.250980
0.376471 0.874510 0.250980
0.501961 0.874510 0.250980
0.623529 0.874510 0.250980
0.749020 0.874510 0.250980
0.874510 0.874510 0.250980
1.000000 0.874510 0.250980
0.000000 0.749020 0.250980
0.125490 0.749020 0.250980
0.250980 0.749020 0.250980
0.376471 0.749020 0.250980
0.501961 0.749020 0.250980
0.623529 0.749020 0.250980
0.749020 0.749020 0.250980
0.874510 0.749020 0.250980
1.000000 0.749020 0.250980
0.000000 0.623529 0.250980
0.125490 0.623529 0.250980
0.250980 0.623529 0.250980
0.376471 0.623529 0.250980
0.501961 0.623529 0.250980
0.623529 0.623529 0.250980
0.749020 0.623529 0.250980
0.874510 0.623529 0.250980
1.000000 0.623529 0.250980
0.000000 0.498039 0.250980
0.125490 0.498039 0.250980
0.250980 0.498039 0.250980
0.376471 0.498039 0.250980
0.501961 0.498039 0.250980
0.623529 0.498039 0.250980
0.749020 0.498039 0.250980
0.874510 0.498039 0.250980
1.000000 0.498039 0.250980
0.000000 0.376471 0.250980
0.125490 0.376471 0.250980
0.250980 0.376471 0.250980
0.376471 0.376471 0.250980
0.501961 0.376471 0.250980
0.623529 0.376471 0.250980
0.749020 0.376471 0.250980
0.874510 0.376471 0.250980
1.000000 0.376471 0.250980
0.000000 0.250980 0.250980
0.125490 0.250980 0.250980
0.250980 0.250980 0.250980
0.376471 0.250980 0.250980
0.501961 0.250980 0.250980
0.623529 0.250980 0.250980
0.749020 0.250980 0.250980
0.874510 0.250980 0.250980
1.000000 0.250980 0.250980
0.000000 0.125490 0.250980
0.125490 0.125490 0.250980
0.250980 0.125490 0.250980
0.376471 0.125490 0.250980
0.501961 0.125490 0.250980
0.623529 0.125490 0.250980
0.749020 0.125490 0.250980
0.874510 0.125490 0.250980
1.000000 0.125490 0.250980
0.000000 0.000000 0.250980
0.125490 0.000000 0.250980
0.250980 0.000000 0.250980
0.376471 0.000000 0.250980
0.501961 0.000000 0.250980
0.623529 0.000000 0.250980
0.749020 0.000000 0.250980
0.874510 0.000000 0.250980
1.000000 0.000000 0.250980
0.000000 1.000000 0.125490
0.125490 1.000000 0.125490
0.250980 1.000000 0.125490
0.376471 1.000000 0.125490
0.501961 1.000000 0.125490
0.623529 1.000000 0.125490
0.749020 1.000000 0.125490
0.874510 1.000000 0.125490
1.000000 1.000000 0.125490
0.000000 0.874510 0.125490
0.125490 0.874510 0.125490
0.250980 0.874510 0.125490
0.376471 0.874510 0.125490
0.501961 0.874510 0.125490
0.623529 0.874510 0.125490
0.749020 0.874510 0.125490
0.874510 0.874510 0.125490
1.000000 0.874510 0.125490
0.000000 0.749020 0.125490
0.125490 0.749020 0.125490
0.250980 0.749020 0.125490
0.376471 0.749020 0.125490
0.501961 0.749020 0.125490
0.623529 0.749020 0.125490
0.749020 0.749020 0.125490
0.874510 0.749020 0.125490
1.000000 0.749020 0.125490
0.000000 0.623529 0.125490
0.125490 0.623529 0.125490
0.250980 0.623529 0.125490
0.376471 0.623529 0.125490
0.501961 0.623529 0.125490
0.623529 0.623529 0.125490
0.749020 0.623529 0.125490
0.874510 0.623529 0.125490
1.000000 0.623529 0.125490
0.000000 0.498039 0.125490
0.125490 0.498039 0.125490
0.250980 0.498039 0.125490
0.376471 0.498039 0.125490
0.501961 0.498039 0.125490
0.623529 0.498039 0.125490
0.749020 0.498039 0.125490
0.874510 0.498039 0.125490
1.000000 0.498039 0.125490
0.000000 0.376471 0.125490
0.125490 0.376471 0.125490
0.250980 0.376471 0.125490
0.376471 0.376471 0.125490
0.501961 0.376471 0.125490
0.623529 0.376471 0.125490
0.749020 0.376471 0.125490
0.874510 0.376471 0.125490
1.000000 0.376471 0.125490
0.000000 0.250980 0.125490
0.125490 0.250980 0.125490
0.250980 0.250980 0.125490
0.376471 0.250980 0.125490
0.501961 0.250980 0.125490
0.623529 0.250980 0.125490
0.749020 0.250980 0.125490
0.874510 0.250980 0.125490
1.000000 0.250980 0.125490
0.000000 0.125490 0.125490
0.125490 0.125490 0.125490
0.250980 0.125490 0.125490
0.376471 0.125490 0.125490
0.501961 0.125490 0.125490
0.623529 0.125490 0.125490
0.749020 0.125490 0.125490
0.874510 0.125490 0.125490
1.000000 0.125490 0.125490
0.000000 0.000000 0.125490
0.125490 0.000000 0.125490
0.250980 0.000000 0.125490
0.376471 0.000000 0.125490
0.501961 0.000000 0.125490
0.623529 0.000000 0.125490
0.749020 0.000000 0.125490
0.874510 0.000000 0.125490
1.000000 0.000000 0.125490
0.000000 1.000000 0.000000
0.125490 1.000000 0.000000
0.250980 1.000000 0.000000
0.376471 1.000000 0.000000
0.501961 1.000000 0.000000
0.623529 1.000000 0.000000
0.749020 1.000000 0.000000
0.874510 1.000000 0.000000
1.000000 1.000000 0.000000
0.000000 0.874510 0.000000
0.125490 0.874510 0.000000
0.250980 0.874510 0.000000
0.376471 0.874510 0.000000
0.501961 0.874510 0.000000
0.623529 0.874510 0.000000
0.749020 0.874510 0.000000
0.874510 0.874510 0.000000
1.000000 0.874510 0.000000
0.000000 0.749020 0.000000
0.125490 0.749020 0.000000
0.250980 0.749020 0.000000
0.376471 0.749020 0.000000
0.501961 0.749020 0.000000
0.623529 0.749020 0.000000
0.749020 0.749020 0.000000
0.874510 0.749020 0.000000
1.000000 0.749020 0.000000
0.000000 0.623529 0.000000
0.125490 0.623529 0.000000
0.250980 0.623529 0.000000
0.376471 0.623529 0.000000
0.501961 0.623529 0.000000
0.623529 0.623529 0.000000
0.749020 0.623529 0.000000
0.874510 0.623529 0.000000
1.000000 0.623529 0.000000
0.000000 0.498039 0.000000
0.125490 0.498039 0.000000
0.250980 0.498039 0.000000
0.376471 0.498039 0.000000
0.501961 0.498039 0.000000
0.623529 0.498039 0.000000
0.749020 0.498039 0.000000
0.874510 0.498039 0.000000
1.000000 0.498039 0.000000
0.000000 0.376471 0.000000
0.125490 0.376471 0.000000
0.250980 0.376471 0.000000
0.376471 0.376471 0.000000
0.501961 0.376471 0.000000
0.623529 0.376471 0.000000
0.749020 0.376471 0.000000
0.874510 0.376471 0.000000
1.000000 0.376471 0.000000
0.000000 0.250980 0.000000
0.125490 0.250980 0.000000
0.250980 0.250980 0.000000
0.376471 0.250980 0.000000
0.501961 0.250980 0.000000
0.623529 0.250980 0.000000
0.749020 0.250980 0.000000
0.874510 0.250980 0.000000
1.000000 0.250980 0.000000
0.000000 0.125490 0.000000
0.125490 0.125490 0.000000
0.250980 0.125490 0.000000
0.376471 0.125490 0.000000
0.501961 0.125490 0.000000
0.623529 0.125490 0.000000
0.749020 0.125490 0.000000
0.874510 0.125490 0.000000
1.000000 0.125490 0.000000
0.000000 0.000000 0.000000
0.125490 0.000000 0.000000
0.250980 0.000000 0.000000
0.376471 0.000000 0.000000
0.501961 0.000000 0.000000
0.623529 0.000000 0.000000
0.749020 0.000000 0.000000
0.874510 0.000000 0.000000
1.000000 0.000000 0.000000
