RGA's G Major 12.cube
# VEGAS Pro LUT
TITLE "RGA's G Major 12"
LUT_3D_SIZE 5
0.99999952 0.99999952 0.99999952
1.00000000 0.82336116 0.72533464
1.00000000 0.64672232 0.45066923
1.00000000 0.47008353 0.17600393
1.00000000 0.29344463 0.00000000
0.82537562 0.82736415 1.00000000
1.00000000 0.90072531 1.00000000
1.00000000 0.72408652 0.76085132
1.00000000 0.54744768 0.48618603
1.00000000 0.37080884 0.21152055
0.65075123 0.65472829 1.00000000
0.99339980 0.72808945 1.00000000
1.00000000 0.80145061 1.00000000
1.00000000 0.62481177 0.79636782
1.00000000 0.44817299 0.52170265
0.47612679 0.48209244 1.00000000
0.81877506 0.55545354 1.00000000
1.00000000 0.62881488 1.00000000
1.00000000 0.70217597 1.00000000
1.00000000 0.52553713 0.83188468
0.30150241 0.30945659 1.00000000
0.64415026 0.38281763 1.00000000
0.98679954 0.45617890 1.00000000
1.00000000 0.52954006 1.00000000
1.00000000 0.60290128 1.00000000
0.58197600 0.84927475 0.71448326
0.92462426 0.92263579 0.68981797
1.00000000 0.74599695 0.41515261
1.00000000 0.56935805 0.14048725
1.00000000 0.39271933 0.00000000
0.65735137 0.92663878 1.00000000
0.75000000 0.75000000 0.75000000
0.84264857 0.57336116 0.47533458
0.93529719 0.39672232 0.20066929
1.00000000 0.22008348 0.00000000
0.48272699 0.75400299 1.00000000
0.57537556 0.57736415 0.81018209
0.91802418 0.65072531 0.78551662
1.00000000 0.47408646 0.51085126
1.00000000 0.29744768 0.23618603
0.30810249 0.58136714 1.00000000
0.40075117 0.40472829 0.87036413
0.74339974 0.47808945 0.84569877
1.00000000 0.55145061 0.82103336
1.00000000 0.37481177 0.54636788
0.13347787 0.40873146 1.00000000
0.22612679 0.23209238 0.93054610
0.56877506 0.30545354 0.90588081
0.91142422 0.37881488 0.88121539
1.00000000 0.45217592 0.85655004
0.16395199 0.69854945 0.42896658
0.50660026 0.77191055 0.40430123
0.84924847 0.84527165 0.37963593
0.94189763 0.66863275 0.10497057
1.00000000 0.49199384 0.00000000
0.23932725 0.77591348 0.73914850
0.33197600 0.59927475 0.46448332
0.67462420 0.67263579 0.43981797
0.76727313 0.49599695 0.16515261
0.85992175 0.31935799 0.00000000
0.31470269 0.85327756 1.00000000
0.40735137 0.67663878 0.77466518
0.50000000 0.50000000 0.50000000
0.59264863 0.32336116 0.22533464
0.68529713 0.14672232 0.00000000
0.14007831 0.68064189 1.00000000
0.23272699 0.50400299 0.83484739
0.32537562 0.32736415 0.56018198
0.66802418 0.40072531 0.53551662
0.76067275 0.22408646 0.26085126
0.00000000 0.50800598 1.00000000
0.05810255 0.33136719 0.89502943
0.15075117 0.15472829 0.62036413
0.49339974 0.22808945 0.59569865
0.83604836 0.30145061 0.57103324
0.00000000 0.54782414 0.14344996
0.08857673 0.62118536 0.11878455
0.43122470 0.69454640 0.09411919
0.77387273 0.76790744 0.06945384
0.86652172 0.59126872 0.00000000
0.00000000 0.62518811 0.45363170
0.00000000 0.44854939 0.17896652
0.25660020 0.52191055 0.15430123
0.59924841 0.59527159 0.12963581
0.69189757 0.41863281 0.00000000
0.00000000 0.70255214 0.76381326
0.00000000 0.52591348 0.48914844
0.08197600 0.34927475 0.21448326
0.42462426 0.42263585 0.18981797
0.51727319 0.24599695 0.00000000
0.00000000 0.77991635 1.00000000
0.06470275 0.60327756 0.79933035
0.15735137 0.42663878 0.52466512
0.25000000 0.25000000 0.25000000
0.34264851 0.07336116 0.00000000
0.00000000 0.60728061 1.00000000
0.00000000 0.43064189 0.85951275
0.00000000 0.25400299 0.58484745
0.07537562 0.07736415 0.31018198
0.41802418 0.15072531 0.28551662
0.00000000 0.39709890 0.00000000
0.00000000 0.47046000 0.00000000
0.01320046 0.54382110 0.00000000
0.35584974 0.61718237 0.00000000
0.69849694 0.69054329 0.00000000
0.00000000 0.47446269 0.16811442
0.00000000 0.29782414 0.00000000
0.00000000 0.37118536 0.00000000
0.18122470 0.44454640 0.00000000
0.52387273 0.51790744 0.00000000
0.00000000 0.55182695 0.47829705
0.00000000 0.37518811 0.20363158
0.00000000 0.19854951 0.00000000
0.00660020 0.27191055 0.00000000
0.34924847 0.34527165 0.00000000
0.00000000 0.62919104 0.78847879
0.00000000 0.45255214 0.51381314
0.00000000 0.27591348 0.23914862
0.00000000 0.09927475 0.00000000
0.17462426 0.17263585 0.00000000
0.00000000 0.70655513 1.00000000
0.00000000 0.52991629 0.82399547
0.00000000 0.35327756 0.54933035
0.00000000 0.17663878 0.27466512
0.00000000 0.00000000 0.00000000
