RGA's G Major 12.cube
# VEGAS Pro LUT
TITLE "RGA's G Major 12"
LUT_3D_SIZE 9
0.99999952 0.99999952 0.99999952
1.00000000 0.91168058 0.86266732
1.00000000 0.82336116 0.72533464
1.00000000 0.73504174 0.58800197
1.00000000 0.64672232 0.45066923
1.00000000 0.55840290 0.31333661
1.00000000 0.47008353 0.17600393
1.00000000 0.38176411 0.03867126
1.00000000 0.29344463 0.00000000
0.91268778 0.91368210 1.00000000
1.00000000 0.95036268 1.00000000
1.00000000 0.86204326 0.88042563
1.00000000 0.77372384 0.74309301
1.00000000 0.68540442 0.60576028
1.00000000 0.59708506 0.46842784
1.00000000 0.50876558 0.33109498
1.00000000 0.42044616 0.19376236
1.00000000 0.33212674 0.05642945
0.82537562 0.82736415 1.00000000
0.99669987 0.86404473 1.00000000
1.00000000 0.90072531 1.00000000
1.00000000 0.81240588 0.89818394
1.00000000 0.72408652 0.76085132
1.00000000 0.63576710 0.62351871
1.00000000 0.54744768 0.48618603
1.00000000 0.45912814 0.34885305
1.00000000 0.37080884 0.21152055
0.73806340 0.74104619 1.00000000
0.90938753 0.77772677 1.00000000
1.00000000 0.81440747 1.00000000
1.00000000 0.85108799 1.00000000
1.00000000 0.76276857 0.91594237
1.00000000 0.67444909 0.77860957
1.00000000 0.58612978 0.64127696
1.00000000 0.49781036 0.50394446
1.00000000 0.40949094 0.36661160
0.65075123 0.65472829 1.00000000
0.82207513 0.69140881 1.00000000
0.99339980 0.72808945 1.00000000
1.00000000 0.76477003 1.00000000
1.00000000 0.80145061 1.00000000
1.00000000 0.71313119 0.93370062
1.00000000 0.62481177 0.79636782
1.00000000 0.53649235 0.65903521
1.00000000 0.44817299 0.52170265
0.56343901 0.56841034 1.00000000
0.73476350 0.60509098 1.00000000
0.90608764 0.64177155 1.00000000
1.00000000 0.67845213 1.00000000
1.00000000 0.71513265 1.00000000
1.00000000 0.75181329 1.00000000
1.00000000 0.66349399 0.95145941
1.00000000 0.57517445 0.81412649
1.00000000 0.48685503 0.67679363
0.47612679 0.48209244 1.00000000
0.64745092 0.51877296 1.00000000
0.81877506 0.55545354 1.00000000
0.99009967 0.59213424 1.00000000
1.00000000 0.62881488 1.00000000
1.00000000 0.66549540 1.00000000
1.00000000 0.70217597 1.00000000
1.00000000 0.61385661 0.96921760
1.00000000 0.52553713 0.83188468
0.38881457 0.39577448 1.00000000
0.56013870 0.43245506 1.00000000
0.73146302 0.46913558 1.00000000
0.90278774 0.50581628 1.00000000
1.00000000 0.54249674 1.00000000
1.00000000 0.57917744 1.00000000
1.00000000 0.61585796 1.00000000
1.00000000 0.65253854 1.00000000
1.00000000 0.56421924 0.98697603
0.30150241 0.30945659 1.00000000
0.47282666 0.34613717 1.00000000
0.64415026 0.38281763 1.00000000
0.81547517 0.41949832 1.00000000
0.98679954 0.45617890 1.00000000
1.00000000 0.49285948 1.00000000
1.00000000 0.52954006 1.00000000
1.00000000 0.56622064 1.00000000
1.00000000 0.60290128 1.00000000
0.79098797 0.92463738 0.85724163
0.96231210 0.96131790 0.84490895
1.00000000 0.87299848 0.70757627
1.00000000 0.78467906 0.57024360
1.00000000 0.69635963 0.43291092
1.00000000 0.60804021 0.29557824
1.00000000 0.51972067 0.15824562
1.00000000 0.43140125 0.02091295
1.00000000 0.34308183 0.00000000
0.82867569 0.96331936 1.00000000
0.87500000 0.87500000 0.87500000
0.92132425 0.78668058 0.73766732
0.96764857 0.69836116 0.60033464
1.00000000 0.61004174 0.46300191
1.00000000 0.52172232 0.32566929
1.00000000 0.43340296 0.18833655
1.00000000 0.34508353 0.05100393
1.00000000 0.25676423 0.00000000
0.74136353 0.87700152 1.00000000
0.78768778 0.78868210 0.90509105
0.95901209 0.82536268 0.89275831
1.00000000 0.73704326 0.75542563
1.00000000 0.64872384 0.61809301
1.00000000 0.56040442 0.48076028
1.00000000 0.47208506 0.34342778
1.00000000 0.38376558 0.20609492
1.00000000 0.29544616 0.06876230
0.65405124 0.79068357 1.00000000
0.70037556 0.70236415 0.93518203
0.87169987 0.73904473 0.92284942
1.00000000 0.77572531 0.91051668
1.00000000 0.68740588 0.77318394
1.00000000 0.59908652 0.63585138
1.00000000 0.51076710 0.49851871
1.00000000 0.42244768 0.36118603
1.00000000 0.33412832 0.22385353
0.56673896 0.70436573 1.00000000
0.61306340 0.61604619 0.96527302
0.78438753 0.65272677 0.95294040
0.95571214 0.68940747 0.94060767
1.00000000 0.72608793 0.92827505
1.00000000 0.63776857 0.79094231
1.00000000 0.54944915 0.65360963
1.00000000 0.46112972 0.51627696
1.00000000 0.37281042 0.37894481
0.47942680 0.61804777 1.00000000
0.52575123 0.52972829 0.99536413
0.69707513 0.56640881 0.98303139
0.86839980 0.60308945 0.97069877
1.00000000 0.63977003 0.95836604
1.00000000 0.67645061 0.94603336
1.00000000 0.58813119 0.80870068
1.00000000 0.49981177 0.67136776
1.00000000 0.41149235 0.53403533
0.39211452 0.53172988 1.00000000
0.43843901 0.44341034 1.00000000
0.60976350 0.48009098 1.00000000
0.78108764 0.51677155 1.00000000
0.95241177 0.55345213 0.98845714
1.00000000 0.59013265 0.97612441
1.00000000 0.62681329 0.96379167
1.00000000 0.53849399 0.82645935
1.00000000 0.45017445 0.68912649
0.30480254 0.44541180 1.00000000
0.35112679 0.35709244 1.00000000
0.52245092 0.39377302 1.00000000
0.69377506 0.43045354 1.00000000
0.86509961 0.46713418 1.00000000
1.00000000 0.50381488 1.00000000
1.00000000 0.54049540 0.99388272
1.00000000 0.57717597 0.98155004
1.00000000 0.48885661 0.84421766
0.21749026 0.35909396 1.00000000
0.26381457 0.27077448 1.00000000
0.43513876 0.30745506 1.00000000
0.60646296 0.34413564 1.00000000
0.77778780 0.38081634 1.00000000
0.94911140 0.41749680 1.00000000
1.00000000 0.45417750 1.00000000
1.00000000 0.49085802 1.00000000
1.00000000 0.52753860 0.99930835
0.58197600 0.84927475 0.71448326
0.75330013 0.88595527 0.70215058
0.92462426 0.92263579 0.68981797
0.97094882 0.83431637 0.55248529
1.00000000 0.74599695 0.41515261
1.00000000 0.65767753 0.27781993
1.00000000 0.56935805 0.14048725
1.00000000 0.48103893 0.00315446
1.00000000 0.39271933 0.00000000
0.61966360 0.88795674 0.86957425
0.66598797 0.79963738 0.73224163
0.83731210 0.83631790 0.71990895
0.88363659 0.74799848 0.58257627
0.92996091 0.65967900 0.44524360
0.97628516 0.57135963 0.30791092
1.00000000 0.48303998 0.17057830
1.00000000 0.39472067 0.03324562
1.00000000 0.30640125 0.00000000
0.65735137 0.92663878 1.00000000
0.70367569 0.83831942 0.88733256
0.75000000 0.75000000 0.75000000
0.79632431 0.66168058 0.61266732
0.84264857 0.57336116 0.47533458
0.88897288 0.48504174 0.33800191
0.93529719 0.39672232 0.20066929
0.98162138 0.30840296 0.06333667
1.00000000 0.22008348 0.00000000
0.57003915 0.84032094 1.00000000
0.61636353 0.75200152 0.91742373
0.66268778 0.66368210 0.78009099
0.83401209 0.70036268 0.76775831
0.88033640 0.61204326 0.63042563
0.92666066 0.52372384 0.49309301
0.97298497 0.43540436 0.35576028
1.00000000 0.34708512 0.21842796
1.00000000 0.25876558 0.08109492
0.48272699 0.75400299 1.00000000
0.52905130 0.66568363 0.94751471
0.57537556 0.57736415 0.81018209
0.74669987 0.61404473 0.79784930
0.91802418 0.65072531 0.78551662
0.96434844 0.56240588 0.64818394
1.00000000 0.47408646 0.51085126
1.00000000 0.38576710 0.37351871
1.00000000 0.29744768 0.23618603
0.39541477 0.66768509 1.00000000
0.44173896 0.57936573 0.97760570
0.48806340 0.49104625 0.84027314
0.65938747 0.52772677 0.82794040
0.83071214 0.56440747 0.81560773
1.00000000 0.60108799 0.80327499
1.00000000 0.51276857 0.66594231
1.00000000 0.42444915 0.52860963
1.00000000 0.33612972 0.39127690
0.30810249 0.58136714 1.00000000
0.35442680 0.49304777 1.00000000
0.40075117 0.40472829 0.87036413
0.57207513 0.44140881 0.85803139
0.74339974 0.47808945 0.84569877
0.91472405 0.51477003 0.83336604
1.00000000 0.55145061 0.82103336
1.00000000 0.46313119 0.68370062
1.00000000 0.37481177 0.54636788
0.22079027 0.49504930 1.00000000
0.26711458 0.40672988 1.00000000
0.31343907 0.31841040 0.90045506
0.48476350 0.35509104 0.88812238
0.65608758 0.39177155 0.87578970
0.82741171 0.42845213 0.86345702
0.99873579 0.46513265 0.85112435
1.00000000 0.50181329 0.83879161
1.00000000 0.41349393 0.70145941
0.13347787 0.40873146 1.00000000
0.17980254 0.32041180 1.00000000
0.22612679 0.23209238 0.93054610
0.39745086 0.26877296 0.91821343
0.56877506 0.30545354 0.90588081
0.74009967 0.34213418 0.89354813
0.91142422 0.37881488 0.88121539
1.00000000 0.41549540 0.86888278
1.00000000 0.45217592 0.85655004
0.37296402 0.77391207 0.57172501
0.54428840 0.81059265 0.55939227
0.71561235 0.84727323 0.54705960
0.88693637 0.88395369 0.53472692
0.93326086 0.79563439 0.39739424
0.97958547 0.70731485 0.26006162
1.00000000 0.61899537 0.12272888
1.00000000 0.53067601 0.00000000
1.00000000 0.44235665 0.00000000
0.41065150 0.81259406 0.72681582
0.45697600 0.72427469 0.58948326
0.62830007 0.76095527 0.57715058
0.79962420 0.79763579 0.56481791
0.84594882 0.70931637 0.42748523
0.89227313 0.62099695 0.29015261
0.93859738 0.53267753 0.15281987
0.98492146 0.44435829 0.01548725
1.00000000 0.35603893 0.00000000
0.44833922 0.85127604 0.88190663
0.49466360 0.76295674 0.74457419
0.54098797 0.67463738 0.60724163
0.71231210 0.71131790 0.59490895
0.75863659 0.62299848 0.45757627
0.80496091 0.53467900 0.32024360
0.85128516 0.44635963 0.18291092
0.89760935 0.35804027 0.04557836
0.94393390 0.26972067 0.00000000
0.48602706 0.88995814 1.00000000
0.53235137 0.80163878 0.89966518
0.57867569 0.71331942 0.76233256
0.62500000 0.62500000 0.62500000
0.67132425 0.53668058 0.48766726
0.71764863 0.44836122 0.35033476
0.76397288 0.36004174 0.21300191
0.81029719 0.27172232 0.07566929
0.85662138 0.18340296 0.00000000
0.39871496 0.80364031 1.00000000
0.44503909 0.71532094 0.92975634
0.49136353 0.62700152 0.79242373
0.53768778 0.53868210 0.65509099
0.70901209 0.57536268 0.64275831
0.75533640 0.48704320 0.50542563
0.80166066 0.39872384 0.36809301
0.84798491 0.31040436 0.23076028
0.89430928 0.22208506 0.09342778
0.31140274 0.71732235 1.00000000
0.35772699 0.62900299 0.95984739
0.40405130 0.54068363 0.82251477
0.45037562 0.45236415 0.68518209
0.62169993 0.48904473 0.67284942
0.79302418 0.52572536 0.66051674
0.83934844 0.43740588 0.52318394
0.88567275 0.34908646 0.38585126
0.93199700 0.26076710 0.24851871
0.22409058 0.63100445 1.00000000
0.27041477 0.54268509 0.98993844
0.31673896 0.45436573 0.85260576
0.36306340 0.36604619 0.71527314
0.53438747 0.40272677 0.70294040
0.70571208 0.43940741 0.69060767
0.87703621 0.47608799 0.67827499
0.92336053 0.38776851 0.54094231
0.96968478 0.29944915 0.40360951
0.13677818 0.54468656 1.00000000
0.18310255 0.45636719 1.00000000
0.22942674 0.36804777 0.88269669
0.27575117 0.27972829 0.74536413
0.44707513 0.31640881 0.73303139
0.61839974 0.35308945 0.72069877
0.78972405 0.38977003 0.70836604
0.96104836 0.42645061 0.69603336
1.00000000 0.33813119 0.55870068
0.04946613 0.45836860 1.00000000
0.09579027 0.37004930 1.00000000
0.14211458 0.28172988 0.91278774
0.18843901 0.19341034 0.77545512
0.35976350 0.23009098 0.76312238
0.53108764 0.26677155 0.75078970
0.70241177 0.30345207 0.73845708
0.87373590 0.34013265 0.72612441
1.00000000 0.37681329 0.71379173
0.16395199 0.69854945 0.42896658
0.33527613 0.73522997 0.41663396
0.50660026 0.77191055 0.40430123
0.67792487 0.80859119 0.39196861
0.84924847 0.84527165 0.37963593
0.89557344 0.75695211 0.24230331
0.94189763 0.66863275 0.10497057
0.98822206 0.58031321 0.00000000
1.00000000 0.49199384 0.00000000
0.20163935 0.73723137 0.58405721
0.24796396 0.64891207 0.44672489
0.41928840 0.68559265 0.43439227
0.59061235 0.72227323 0.42205960
0.76193637 0.75895369 0.40972686
0.80826086 0.67063439 0.27239430
0.85458541 0.58231485 0.13506156
0.90090966 0.49399537 0.00000000
0.94723380 0.40567607 0.00000000
0.23932725 0.77591348 0.73914850
0.28565150 0.68759406 0.60181582
0.33197600 0.59927475 0.46448332
0.50330007 0.63595527 0.45215064
0.67462420 0.67263579 0.43981797
0.72094882 0.58431637 0.30248523
0.76727313 0.49599695 0.16515261
0.81359738 0.40767753 0.02782005
0.85992175 0.31935799 0.00000000
0.27701497 0.81459552 0.89423943
0.32333928 0.72627604 0.75690657
0.36966360 0.63795674 0.61957431
0.41598797 0.54963738 0.48224163
0.58731210 0.58631790 0.46990895
0.63363659 0.49799848 0.33257627
0.67996091 0.40967900 0.19524360
0.72628516 0.32135963 0.05791092
0.77260935 0.23304021 0.00000000
0.31470269 0.85327756 1.00000000
0.36102712 0.76495814 0.91199774
0.40735137 0.67663878 0.77466518
0.45367569 0.58831942 0.63733256
0.50000000 0.50000000 0.50000000
0.54632425 0.41168052 0.36266726
0.59264863 0.32336116 0.22533464
0.63897288 0.23504174 0.08800191
0.68529713 0.14672232 0.00000000
0.22739053 0.76695979 1.00000000
0.27371496 0.67864037 0.94208908
0.32003909 0.59032094 0.80475640
0.36636353 0.50200152 0.66742367
0.41268778 0.41368204 0.53009099
0.58401203 0.45036262 0.51775825
0.63033640 0.36204332 0.38042575
0.67666066 0.27372384 0.24309301
0.72298491 0.18540436 0.10576016
0.14007831 0.68064189 1.00000000
0.18640274 0.59232235 0.97218013
0.23272699 0.50400299 0.83484739
0.27905124 0.41568357 0.69751471
0.32537562 0.32736415 0.56018198
0.49669987 0.36404473 0.54784942
0.66802418 0.40072531 0.53551662
0.71434850 0.31240588 0.39818418
0.76067275 0.22408646 0.26085126
0.05276620 0.59432387 1.00000000
0.09909052 0.50600445 1.00000000
0.14541483 0.41768509 0.86493838
0.19173896 0.32936567 0.72760564
0.23806340 0.24104619 0.59027314
0.40938753 0.27772677 0.57794046
0.58071208 0.31440741 0.56560767
0.75203621 0.35108799 0.55327499
0.79836053 0.26276851 0.41594225
0.00000000 0.50800598 1.00000000
0.01177818 0.41968662 1.00000000
0.05810255 0.33136719 0.89502943
0.10442680 0.24304783 0.75769675
0.15075117 0.15472829 0.62036413
0.32207513 0.19140881 0.60803139
0.49339974 0.22808945 0.59569865
0.66472405 0.26477003 0.58336604
0.83604836 0.30145061 0.57103324
0.00000000 0.62318683 0.28620821
0.12626410 0.65986735 0.27387559
0.29758823 0.69654787 0.26154292
0.46891236 0.73322845 0.24921030
0.64023650 0.76990902 0.23687756
0.81156147 0.80658942 0.22454500
0.85788548 0.71827006 0.08721220
0.90420985 0.62995058 0.00000000
0.95053405 0.54163134 0.00000000
0.00000000 0.66186881 0.44129938
0.03895199 0.57354945 0.30396664
0.21027613 0.61023003 0.29163402
0.38160020 0.64691055 0.27930123
0.55292487 0.68359119 0.26696861
0.72424847 0.72027165 0.25463593
0.77057338 0.63195211 0.11730319
0.81689757 0.54363281 0.00000000
0.86322212 0.45531321 0.00000000
0.03031516 0.70055079 0.59639025
0.07663935 0.61223137 0.45905721
0.12296402 0.52391207 0.32172495
0.29428834 0.56059265 0.30939221
0.46561235 0.59727323 0.29705960
0.63693637 0.63395375 0.28472692
0.68326092 0.54563439 0.14739430
0.72958535 0.45731479 0.01006168
0.77590966 0.36899537 0.00000000
0.06800288 0.73923290 0.75148118
0.11432725 0.65091348 0.61414850
0.16065150 0.56259406 0.47681582
0.20697600 0.47427475 0.33948326
0.37830013 0.51095533 0.32715064
0.54962420 0.54763585 0.31481797
0.59594870 0.45931637 0.17748517
0.64227319 0.37099695 0.04015261
0.68859744 0.28267753 0.00000000
0.10569072 0.77791488 0.90657198
0.15201497 0.68959552 0.76923943
0.19833928 0.60127604 0.63190663
0.24466366 0.51295674 0.49457437
0.29098803 0.42463738 0.35724169
0.46231216 0.46131796 0.34490907
0.50863659 0.37299848 0.20757627
0.55496091 0.28467900 0.07024360
0.60128510 0.19635963 0.00000000
0.14337844 0.81659698 1.00000000
0.18970275 0.72827756 0.92433023
0.23602706 0.63995814 0.78699774
0.28235137 0.55163878 0.64966518
0.32867569 0.46331936 0.51233262
0.37500000 0.37500000 0.37500000
0.42132425 0.28668052 0.23766726
0.46764857 0.19836122 0.10033476
0.51397288 0.11004174 0.00000000
0.05606627 0.73027921 1.00000000
0.10239053 0.64195979 0.95442176
0.14871496 0.55364037 0.81708908
0.19503915 0.46532094 0.67975628
0.24136353 0.37700146 0.54242361
0.28768778 0.28868204 0.40509099
0.45901209 0.32536268 0.39275837
0.50533640 0.23704320 0.25542563
0.55166066 0.14872384 0.11809301
0.00000000 0.64396125 1.00000000
0.01507825 0.55564189 0.98451275
0.06140286 0.46732235 0.84718001
0.10772699 0.37900299 0.70984733
0.15405124 0.29068357 0.57251471
0.20037562 0.20236415 0.43518215
0.37169987 0.23904473 0.42284936
0.54302418 0.27572536 0.41051680
0.58934844 0.18740588 0.27318388
0.00000000 0.55764353 1.00000000
0.00000000 0.46932393 1.00000000
0.00000000 0.38100451 0.87727106
0.02041477 0.29268503 0.73993844
0.06673896 0.20436573 0.60260576
0.11306340 0.11604619 0.46527314
0.28438753 0.15272677 0.45294034
0.45571214 0.18940741 0.44060767
0.62703621 0.22608799 0.42827505
0.00000000 0.54782414 0.14344996
0.00000000 0.58450460 0.13111728
0.08857673 0.62118536 0.11878455
0.25990033 0.65786582 0.10645187
0.43122470 0.69454640 0.09411919
0.60254908 0.73122704 0.08178645
0.77387273 0.76790744 0.06945384
0.82019770 0.67958796 0.00000000
0.86652172 0.59126872 0.00000000
0.00000000 0.58650601 0.29854059
0.00000000 0.49818677 0.16120821
0.00126410 0.53486735 0.14887559
0.17258823 0.57154787 0.13654292
0.34391236 0.60822845 0.12421030
0.51523650 0.64490902 0.11187762
0.68656141 0.68158937 0.09954488
0.73288548 0.59327012 0.00000000
0.77920997 0.50495064 0.00000000
0.00000000 0.62518811 0.45363170
0.00000000 0.53686881 0.31629932
0.00000000 0.44854939 0.17896652
0.08527613 0.48522997 0.16663390
0.25660020 0.52191055 0.15430123
0.42792481 0.55859119 0.14196843
0.59924841 0.59527159 0.12963581
0.64557338 0.50695211 0.00000000
0.69189757 0.41863281 0.00000000
0.00000000 0.66387022 0.60872281
0.00000000 0.57555079 0.47139019
0.00000000 0.48723125 0.33405709
0.00000000 0.39891213 0.19672495
0.16928840 0.43559271 0.18439233
0.34061235 0.47227317 0.17205960
0.51193637 0.50895369 0.15972686
0.55826116 0.42063421 0.02239430
0.60458541 0.33231485 0.00000000
0.00000000 0.70255214 0.76381326
0.00000000 0.61423290 0.62648106
0.00000000 0.52591348 0.48914844
0.03565150 0.43759412 0.35181582
0.08197600 0.34927475 0.21448326
0.25330013 0.38595527 0.20215064
0.42462426 0.42263585 0.18981797
0.47094864 0.33431649 0.05248523
0.51727319 0.24599695 0.00000000
0.00000000 0.74123442 0.91890502
0.00000000 0.65291488 0.78157198
0.02701497 0.56459552 0.64423943
0.07333928 0.47627604 0.50690663
0.11966360 0.38795668 0.36957425
0.16598797 0.29963738 0.23224157
0.33731210 0.33631790 0.21990889
0.38363659 0.24799848 0.08257627
0.42996073 0.15967917 0.00000000
0.00000000 0.77991635 1.00000000
0.01837844 0.69159698 0.93666285
0.06470275 0.60327756 0.79933035
0.11102706 0.51495814 0.66199768
0.15735137 0.42663878 0.52466512
0.20367563 0.33831930 0.38733238
0.25000000 0.25000000 0.25000000
0.29632443 0.16168058 0.11266738
0.34264851 0.07336116 0.00000000
0.00000000 0.69359851 1.00000000
0.00000000 0.60527921 0.96675438
0.00000000 0.51695979 0.82942164
0.02371496 0.42864031 0.69208908
0.07003915 0.34032100 0.55475640
0.11636353 0.25200152 0.41742373
0.16268778 0.16368210 0.28009117
0.33401227 0.20036268 0.26775849
0.38033634 0.11204320 0.13042551
0.00000000 0.60728061 1.00000000
0.00000000 0.51896125 0.99684536
0.00000000 0.43064189 0.85951275
0.00000000 0.34232235 0.72218013
0.00000000 0.25400299 0.58484745
0.02905130 0.16568363 0.44751483
0.07537562 0.07736415 0.31018198
0.24669987 0.11404467 0.29784924
0.41802418 0.15072531 0.28551662
0.00000000 0.47246152 0.00069153
0.00000000 0.50914192 0.00000000
0.00000000 0.54582274 0.00000000
0.05088860 0.58250320 0.00000000
0.22221220 0.61918360 0.00000000
0.39353752 0.65586448 0.00000000
0.56486118 0.69254482 0.00000000
0.73618478 0.72922534 0.00000000
0.78251004 0.64090586 0.00000000
0.00000000 0.51114333 0.15578222
0.00000000 0.42282414 0.01844996
0.00000000 0.45950460 0.00611728
0.00000000 0.49618536 0.00000000
0.13490033 0.53286582 0.00000000
0.30622470 0.56954640 0.00000000
0.47754914 0.60622704 0.00000000
0.64887273 0.64290750 0.00000000
0.69519776 0.55458802 0.00000000
0.00000000 0.54982531 0.31087273
0.00000000 0.46150607 0.17354059
0.00000000 0.37318683 0.03620833
0.00000000 0.40986735 0.02387571
0.04758829 0.44654787 0.01154298
0.21891242 0.48322845 0.00000000
0.39023656 0.51990896 0.00000000
0.56156141 0.55658937 0.00000000
0.60788548 0.46827012 0.00000000
0.00000000 0.58850759 0.46596473
0.00000000 0.50018811 0.32863170
0.00000000 0.41186875 0.19129932
0.00000000 0.32354939 0.05396652
0.00000000 0.36022997 0.04163390
0.13160020 0.39691055 0.02930123
0.30292481 0.43359119 0.01696843
0.47424841 0.47027159 0.00463581
0.52057344 0.38195211 0.00000000
0.00000000 0.62718952 0.62105513
0.00000000 0.53887022 0.48372281
0.00000000 0.45055085 0.34639019
0.00000000 0.36223131 0.20905721
0.00000000 0.27391213 0.07172495
0.04428840 0.31059271 0.05939233
0.21561271 0.34727329 0.04705954
0.38693637 0.38395369 0.03472686
0.43326086 0.29563433 0.00000000
0.00000000 0.66587162 0.77614629
0.00000000 0.57755214 0.63881314
0.00000000 0.48923284 0.50148106
0.00000000 0.40091348 0.36414844
0.00000000 0.31259412 0.22681582
0.00000000 0.22427475 0.08948326
0.12830007 0.26095527 0.07715046
0.29962420 0.29763579 0.06481785
0.34594876 0.20931637 0.00000000
0.00000000 0.70455372 0.93123758
0.00000000 0.61623442 0.79390502
0.00000000 0.52791488 0.65657187
0.00000000 0.43959546 0.51923931
0.00000000 0.35127610 0.38190657
0.00000000 0.26295668 0.24457425
0.04098785 0.17463732 0.10724157
0.21231216 0.21131796 0.09490883
0.25863653 0.12299848 0.00000000
0.00000000 0.74323571 1.00000000
0.00000000 0.65491629 0.94899547
0.00000000 0.56659687 0.81166273
0.00000000 0.47827756 0.67433035
0.00000000 0.38995814 0.53699768
0.03235137 0.30163878 0.39966512
0.07867557 0.21331942 0.26233262
0.12500000 0.12500000 0.12500000
0.17132425 0.03668052 0.00000000
0.00000000 0.65691799 1.00000000
0.00000000 0.56859857 0.97908711
0.00000000 0.48027921 0.84175444
0.00000000 0.39195979 0.70442176
0.00000000 0.30364031 0.56708908
0.00000000 0.21532100 0.42975640
0.00000000 0.12700152 0.29242373
0.03768778 0.03868198 0.15509087
0.20901209 0.07536262 0.14275825
0.00000000 0.39709890 0.00000000
0.00000000 0.43377930 0.00000000
0.00000000 0.47046000 0.00000000
0.00000000 0.50714058 0.00000000
0.01320046 0.54382110 0.00000000
0.18452507 0.58050168 0.00000000
0.35584974 0.61718237 0.00000000
0.52717340 0.65386283 0.00000000
0.69849694 0.69054329 0.00000000
0.00000000 0.43578076 0.01302391
0.00000000 0.34746152 0.00000000
0.00000000 0.38414198 0.00000000
0.00000000 0.42082280 0.00000000
0.00000000 0.45750320 0.00000000
0.09721220 0.49418366 0.00000000
0.26853752 0.53086448 0.00000000
0.43986124 0.56754488 0.00000000
0.61118484 0.60422528 0.00000000
0.00000000 0.47446269 0.16811442
0.00000000 0.38614339 0.03078234
0.00000000 0.29782414 0.00000000
0.00000000 0.33450454 0.00000000
0.00000000 0.37118536 0.00000000
0.00990033 0.40786582 0.00000000
0.18122470 0.44454640 0.00000000
0.35254908 0.48122692 0.00000000
0.52387273 0.51790744 0.00000000
0.00000000 0.51314479 0.32320565
0.00000000 0.42482537 0.18587279
0.00000000 0.33650607 0.04854059
0.00000000 0.24818677 0.00000000
0.00000000 0.28486735 0.00000000
0.00000000 0.32154793 0.00000000
0.09391236 0.35822845 0.00000000
0.26523650 0.39490896 0.00000000
0.43656147 0.43158937 0.00000000
0.00000000 0.55182695 0.47829705
0.00000000 0.46350765 0.34096479
0.00000000 0.37518811 0.20363158
0.00000000 0.28686875 0.06629920
0.00000000 0.19854951 0.00000000
0.00000000 0.23522997 0.00000000
0.00660020 0.27191055 0.00000000
0.17792487 0.30859119 0.00000000
0.34924847 0.34527165 0.00000000
0.00000000 0.59050894 0.63338751
0.00000000 0.50218952 0.49605519
0.00000000 0.41387022 0.35872281
0.00000000 0.32555079 0.22139019
0.00000000 0.23723131 0.08405733
0.00000000 0.14891201 0.00000000
0.00000000 0.18559265 0.00000000
0.09061229 0.22227317 0.00000000
0.26193637 0.25895369 0.00000000
0.00000000 0.62919104 0.78847879
0.00000000 0.54087168 0.65114641
0.00000000 0.45255214 0.51381314
0.00000000 0.36423284 0.37648106
0.00000000 0.27591348 0.23914862
0.00000000 0.18759412 0.10181582
0.00000000 0.09927475 0.00000000
0.00330013 0.13595527 0.00000000
0.17462426 0.17263585 0.00000000
0.00000000 0.66787314 0.94357020
0.00000000 0.57955378 0.80623758
0.00000000 0.49123442 0.66890490
0.00000000 0.40291488 0.53157198
0.00000000 0.31459552 0.39423949
0.00000000 0.22627610 0.25690657
0.00000000 0.13795668 0.11957425
0.00000000 0.04963738 0.00000000
0.08731216 0.08631796 0.00000000
0.00000000 0.70655513 1.00000000
0.00000000 0.61823571 0.96132797
0.00000000 0.52991629 0.82399547
0.00000000 0.44159693 0.68666279
0.00000000 0.35327756 0.54933035
0.00000000 0.26495814 0.41199774
0.00000000 0.17663878 0.27466512
0.00000000 0.08831936 0.13733262
0.00000000 0.00000000 0.00000000
