RGA's G Major 12.cube
# VEGAS Pro LUT
TITLE "RGA's G Major 12"
LUT_3D_SIZE 33
0.99999952 0.99999952 0.99999952
1.00000000 0.97792017 0.96566683
1.00000000 0.95584029 0.93133366
1.00000000 0.93376046 0.89700049
1.00000000 0.91168058 0.86266732
1.00000000 0.88960075 0.82833415
1.00000000 0.86752087 0.79400098
1.00000000 0.84544104 0.75966781
1.00000000 0.82336116 0.72533464
1.00000000 0.80128133 0.69100147
1.00000000 0.77920145 0.65666831
1.00000000 0.75712156 0.62233508
1.00000000 0.73504174 0.58800197
1.00000000 0.71296191 0.55366874
1.00000000 0.69088209 0.51933563
1.00000000 0.66880220 0.48500246
1.00000000 0.64672232 0.45066923
1.00000000 0.62464249 0.41633612
1.00000000 0.60256267 0.38200295
1.00000000 0.58048278 0.34766972
1.00000000 0.55840290 0.31333661
1.00000000 0.53632307 0.27900338
1.00000000 0.51424313 0.24467021
1.00000000 0.49216336 0.21033704
1.00000000 0.47008353 0.17600393
1.00000000 0.44800371 0.14167076
1.00000000 0.42592376 0.10733747
1.00000000 0.40384394 0.07300436
1.00000000 0.38176411 0.03867126
1.00000000 0.35968423 0.00433797
1.00000000 0.33760440 0.00000000
1.00000000 0.31552452 0.00000000
1.00000000 0.29344463 0.00000000
0.97817194 0.97842050 1.00000000
1.00000000 0.98759067 1.00000000
1.00000000 0.96551079 0.97010642
1.00000000 0.94343096 0.93577325
1.00000000 0.92135108 0.90144008
1.00000000 0.89927125 0.86710697
1.00000000 0.87719142 0.83277375
1.00000000 0.85511154 0.79844058
1.00000000 0.83303165 0.76410735
1.00000000 0.81095183 0.72977424
1.00000000 0.78887200 0.69544101
1.00000000 0.76679212 0.66110778
1.00000000 0.74471229 0.62677479
1.00000000 0.72263241 0.59244168
1.00000000 0.70055258 0.55810845
1.00000000 0.67847276 0.52377534
1.00000000 0.65639281 0.48944199
1.00000000 0.63431299 0.45510894
1.00000000 0.61223316 0.42077577
1.00000000 0.59015334 0.38644266
1.00000000 0.56807351 0.35210931
1.00000000 0.54599369 0.31777638
1.00000000 0.52391374 0.28344291
1.00000000 0.50183392 0.24910980
1.00000000 0.47975403 0.21477652
1.00000000 0.45767421 0.18044347
1.00000000 0.43559432 0.14611024
1.00000000 0.41351444 0.11177701
1.00000000 0.39143455 0.07744372
1.00000000 0.36935484 0.04311103
1.00000000 0.34727490 0.00877762
1.00000000 0.32519501 0.00000000
1.00000000 0.30311519 0.00000000
0.95634389 0.95684105 1.00000000
0.99917495 0.96601117 1.00000000
1.00000000 0.97518134 1.00000000
1.00000000 0.95310146 0.97454596
1.00000000 0.93102163 0.94021285
1.00000000 0.90894175 0.90587968
1.00000000 0.88686192 0.87154651
1.00000000 0.86478204 0.83721328
1.00000000 0.84270221 0.80288017
1.00000000 0.82062232 0.76854694
1.00000000 0.79854250 0.73421395
1.00000000 0.77646261 0.69988048
1.00000000 0.75438279 0.66554749
1.00000000 0.73230290 0.63121426
1.00000000 0.71022308 0.59688115
1.00000000 0.68814319 0.56254786
1.00000000 0.66606337 0.52821469
1.00000000 0.64398348 0.49388164
1.00000000 0.62190366 0.45954847
1.00000000 0.59982383 0.42521530
1.00000000 0.57774401 0.39088202
1.00000000 0.55566412 0.35654896
1.00000000 0.53358424 0.32221556
1.00000000 0.51150441 0.28788251
1.00000000 0.48942459 0.25354952
1.00000000 0.46734470 0.21921611
1.00000000 0.44526488 0.18488336
1.00000000 0.42318493 0.15054989
1.00000000 0.40110517 0.11621684
1.00000000 0.37902528 0.08188367
1.00000000 0.35694546 0.04755062
1.00000000 0.33486557 0.01321715
1.00000000 0.31278569 0.00000000
0.93451583 0.93526155 1.00000000
0.97734690 0.94443166 1.00000000
1.00000000 0.95360184 1.00000000
1.00000000 0.96277201 1.00000000
1.00000000 0.94069213 0.97898561
1.00000000 0.91861230 0.94465238
1.00000000 0.89653242 0.91031927
1.00000000 0.87445259 0.87598610
1.00000000 0.85237277 0.84165287
1.00000000 0.83029288 0.80731976
1.00000000 0.80821306 0.77298665
1.00000000 0.78613317 0.73865342
1.00000000 0.76405334 0.70432019
1.00000000 0.74197352 0.66998708
1.00000000 0.71989357 0.63565379
1.00000000 0.69781375 0.60132086
1.00000000 0.67573392 0.56698751
1.00000000 0.65365410 0.53265452
1.00000000 0.63157415 0.49832124
1.00000000 0.60949433 0.46398807
1.00000000 0.58741444 0.42965472
1.00000000 0.56533462 0.39532161
1.00000000 0.54325473 0.36098826
1.00000000 0.52117485 0.32665521
1.00000000 0.49909502 0.29232210
1.00000000 0.47701520 0.25798881
1.00000000 0.45493531 0.22365570
1.00000000 0.43285549 0.18932277
1.00000000 0.41077566 0.15498954
1.00000000 0.38869578 0.12065613
1.00000000 0.36661589 0.08632296
1.00000000 0.34453601 0.05198973
1.00000000 0.32245618 0.01765674
0.91268778 0.91368210 1.00000000
0.95551878 0.92285222 1.00000000
0.99834996 0.93202233 1.00000000
1.00000000 0.94119251 1.00000000
1.00000000 0.95036268 1.00000000
1.00000000 0.92828280 0.98342514
1.00000000 0.90620291 0.94909197
1.00000000 0.88412309 0.91475880
1.00000000 0.86204326 0.88042563
1.00000000 0.83996344 0.84609252
1.00000000 0.81788355 0.81175935
1.00000000 0.79580367 0.77742618
1.00000000 0.77372384 0.74309301
1.00000000 0.75164396 0.70875978
1.00000000 0.72956407 0.67442656
1.00000000 0.70748425 0.64009345
1.00000000 0.68540442 0.60576028
1.00000000 0.66332459 0.57142711
1.00000000 0.64124465 0.53709388
1.00000000 0.61916482 0.50276065
1.00000000 0.59708506 0.46842784
1.00000000 0.57500517 0.43409443
1.00000000 0.55292523 0.39976102
1.00000000 0.53084540 0.36542797
1.00000000 0.50876558 0.33109498
1.00000000 0.48668569 0.29676157
1.00000000 0.46460587 0.26242858
1.00000000 0.44252604 0.22809541
1.00000000 0.42044616 0.19376236
1.00000000 0.39836621 0.15942889
1.00000000 0.37628639 0.12509573
1.00000000 0.35420656 0.09076250
1.00000000 0.33212674 0.05642945
0.89085972 0.89210260 1.00000000
0.93369091 0.90127277 1.00000000
0.97652191 0.91044289 1.00000000
1.00000000 0.91961300 1.00000000
1.00000000 0.92878318 1.00000000
1.00000000 0.93795335 1.00000000
1.00000000 0.91587347 0.98786485
1.00000000 0.89379358 0.95353162
1.00000000 0.87171376 0.91919839
1.00000000 0.84963393 0.88486528
1.00000000 0.82755405 0.85053205
1.00000000 0.80547422 0.81619889
1.00000000 0.78339440 0.78186589
1.00000000 0.76131451 0.74753255
1.00000000 0.73923463 0.71319938
1.00000000 0.71715474 0.67886627
1.00000000 0.69507492 0.64453304
1.00000000 0.67299509 0.61020005
1.00000000 0.65091515 0.57586658
1.00000000 0.62883532 0.54153347
1.00000000 0.60675550 0.50720036
1.00000000 0.58467567 0.47286725
1.00000000 0.56259584 0.43853414
1.00000000 0.54051590 0.40420079
1.00000000 0.51843607 0.36986750
1.00000000 0.49635631 0.33553475
1.00000000 0.47427630 0.30120111
1.00000000 0.45219642 0.26686794
1.00000000 0.43011671 0.23253495
1.00000000 0.40803683 0.19820178
1.00000000 0.38595700 0.16386873
1.00000000 0.36387712 0.12953526
1.00000000 0.34179723 0.09520239
0.86903167 0.87052310 1.00000000
0.91186273 0.87969327 1.00000000
0.95469373 0.88886338 1.00000000
0.99752492 0.89803356 1.00000000
1.00000000 0.90720373 1.00000000
1.00000000 0.91637385 1.00000000
1.00000000 0.92554396 1.00000000
1.00000000 0.90346414 0.99230438
1.00000000 0.88138425 0.95797116
1.00000000 0.85930443 0.92363793
1.00000000 0.83722454 0.88930476
1.00000000 0.81514472 0.85497165
1.00000000 0.79306489 0.82063848
1.00000000 0.77098501 0.78630519
1.00000000 0.74890518 0.75197220
1.00000000 0.72682530 0.71763897
1.00000000 0.70474547 0.68330580
1.00000000 0.68266559 0.64897251
1.00000000 0.66058576 0.61463958
1.00000000 0.63850582 0.58030611
1.00000000 0.61642611 0.54597330
1.00000000 0.59434617 0.51163983
1.00000000 0.57226634 0.47730690
1.00000000 0.55018640 0.44297349
1.00000000 0.52810663 0.40864044
1.00000000 0.50602686 0.37430745
1.00000000 0.48394698 0.33997422
1.00000000 0.46186703 0.30564076
1.00000000 0.43978715 0.27130759
1.00000000 0.41770744 0.23697490
1.00000000 0.39562756 0.20264173
1.00000000 0.37354779 0.16830891
1.00000000 0.35146779 0.13397503
0.84720361 0.84894359 1.00000000
0.89003468 0.85811377 1.00000000
0.93286574 0.86728388 1.00000000
0.97569692 0.87645406 1.00000000
1.00000000 0.88562417 1.00000000
1.00000000 0.89479434 1.00000000
1.00000000 0.90396452 1.00000000
1.00000000 0.91313463 1.00000000
1.00000000 0.89105481 0.99674398
1.00000000 0.86897492 0.96241069
1.00000000 0.84689510 0.92807758
1.00000000 0.82481527 0.89374447
1.00000000 0.80273539 0.85941124
1.00000000 0.78065550 0.82507813
1.00000000 0.75857568 0.79074484
1.00000000 0.73649579 0.75641173
1.00000000 0.71441597 0.72207856
1.00000000 0.69233614 0.68774545
1.00000000 0.67025626 0.65341216
1.00000000 0.64817643 0.61907905
1.00000000 0.62609649 0.58474576
1.00000000 0.60401666 0.55041242
1.00000000 0.58193684 0.51607960
1.00000000 0.55985695 0.48174632
1.00000000 0.53777707 0.44741309
1.00000000 0.51569730 0.41308022
1.00000000 0.49361742 0.37874693
1.00000000 0.47153759 0.34441370
1.00000000 0.44945765 0.31008041
1.00000000 0.42737782 0.27574724
1.00000000 0.40529794 0.24141383
1.00000000 0.38321823 0.20708126
1.00000000 0.36113828 0.17274779
0.82537562 0.82736415 1.00000000
0.86820668 0.83653426 1.00000000
0.91103756 0.84570444 1.00000000
0.95386881 0.85487461 1.00000000
0.99669987 0.86404473 1.00000000
1.00000000 0.87321484 1.00000000
1.00000000 0.88238502 1.00000000
1.00000000 0.89155519 1.00000000
1.00000000 0.90072531 1.00000000
1.00000000 0.87864548 1.00000000
1.00000000 0.85656559 0.96685034
1.00000000 0.83448577 0.93251717
1.00000000 0.81240588 0.89818394
1.00000000 0.79032606 0.86385083
1.00000000 0.76824617 0.82951760
1.00000000 0.74616635 0.79518443
1.00000000 0.72408652 0.76085132
1.00000000 0.70200664 0.72651815
1.00000000 0.67992687 0.69218504
1.00000000 0.65784693 0.65785199
1.00000000 0.63576710 0.62351871
1.00000000 0.61368728 0.58918548
1.00000000 0.59160733 0.55485237
1.00000000 0.56952745 0.52051902
1.00000000 0.54744768 0.48618603
1.00000000 0.52536780 0.45185286
1.00000000 0.50328791 0.41751957
1.00000000 0.48120821 0.38318670
1.00000000 0.45912814 0.34885305
1.00000000 0.43704838 0.31452000
1.00000000 0.41496849 0.28018689
1.00000000 0.39288872 0.24585402
1.00000000 0.37080884 0.21152055
0.80354756 0.80578464 1.00000000
0.84637862 0.81495482 1.00000000
0.88920957 0.82412493 1.00000000
0.93204063 0.83329511 1.00000000
0.97487193 0.84246528 1.00000000
1.00000000 0.85163540 1.00000000
1.00000000 0.86080557 1.00000000
1.00000000 0.86997569 1.00000000
1.00000000 0.87914586 1.00000000
1.00000000 0.88831598 1.00000000
1.00000000 0.86623609 1.00000000
1.00000000 0.84415627 0.97128987
1.00000000 0.82207644 0.93695676
1.00000000 0.79999655 0.90262365
1.00000000 0.77791667 0.86829036
1.00000000 0.75583684 0.83395731
1.00000000 0.73375702 0.79962409
1.00000000 0.71167719 0.76529092
1.00000000 0.68959725 0.73095775
1.00000000 0.66751742 0.69662464
1.00000000 0.64543754 0.66229123
1.00000000 0.62335777 0.62795842
1.00000000 0.60127795 0.59362507
1.00000000 0.57919800 0.55929172
1.00000000 0.55711818 0.52495873
1.00000000 0.53503835 0.49062562
1.00000000 0.51295841 0.45629221
1.00000000 0.49087864 0.42195928
1.00000000 0.46879864 0.38762563
1.00000000 0.44671887 0.35329270
1.00000000 0.42463905 0.31895989
1.00000000 0.40255928 0.28462672
1.00000000 0.38047934 0.25029331
0.78171951 0.78420520 1.00000000
0.82455075 0.79337537 1.00000000
0.86738175 0.80254549 1.00000000
0.91021281 0.81171566 1.00000000
0.95304382 0.82088578 1.00000000
0.99587482 0.83005595 1.00000000
1.00000000 0.83922607 1.00000000
1.00000000 0.84839618 1.00000000
1.00000000 0.85756636 1.00000000
1.00000000 0.86673647 1.00000000
1.00000000 0.87590665 1.00000000
1.00000000 0.85382676 1.00000000
1.00000000 0.83174700 0.97572970
1.00000000 0.80966711 0.94139636
1.00000000 0.78758723 0.90706325
1.00000000 0.76550734 0.87272990
1.00000000 0.74342752 0.83839679
1.00000000 0.72134769 0.80406368
1.00000000 0.69926780 0.76973051
1.00000000 0.67718804 0.73539746
1.00000000 0.65510809 0.70106417
1.00000000 0.63302827 0.66673106
1.00000000 0.61094844 0.63239777
1.00000000 0.58886850 0.59806454
1.00000000 0.56678879 0.56373179
1.00000000 0.54470885 0.52939832
1.00000000 0.52262896 0.49506509
1.00000000 0.50054914 0.46073198
1.00000000 0.47846925 0.42639881
1.00000000 0.45638943 0.39206570
1.00000000 0.43430954 0.35773259
1.00000000 0.41222972 0.32339942
1.00000000 0.39014983 0.28906608
0.75989139 0.76262569 1.00000000
0.80272245 0.77179587 1.00000000
0.84555376 0.78096604 1.00000000
0.88838476 0.79013616 1.00000000
0.93121576 0.79930627 1.00000000
0.97404683 0.80847645 1.00000000
1.00000000 0.81764656 1.00000000
1.00000000 0.82681668 1.00000000
1.00000000 0.83598685 1.00000000
1.00000000 0.84515703 1.00000000
1.00000000 0.85432714 1.00000000
1.00000000 0.86349732 1.00000000
1.00000000 0.84141743 1.00000000
1.00000000 0.81933761 0.98016912
1.00000000 0.79725778 0.94583619
1.00000000 0.77517790 0.91150290
1.00000000 0.75309801 0.87716961
1.00000000 0.73101819 0.84283650
1.00000000 0.70893836 0.80850327
1.00000000 0.68685848 0.77417004
1.00000000 0.66477859 0.73983669
1.00000000 0.64269876 0.70550370
1.00000000 0.62061894 0.67117059
1.00000000 0.59853899 0.63683724
1.00000000 0.57645929 0.60250437
1.00000000 0.55437946 0.56817126
1.00000000 0.53229952 0.53383797
1.00000000 0.51021969 0.49950480
1.00000000 0.48813975 0.46517140
1.00000000 0.46605998 0.43083864
1.00000000 0.44398004 0.39650500
1.00000000 0.42190027 0.36217213
1.00000000 0.39982039 0.32783884
0.73806340 0.74104619 1.00000000
0.78089452 0.75021636 1.00000000
0.82372546 0.75938648 1.00000000
0.86655641 0.76855659 1.00000000
0.90938753 0.77772677 1.00000000
0.95221895 0.78689694 1.00000000
0.99504983 0.79606712 1.00000000
1.00000000 0.80523717 1.00000000
1.00000000 0.81440747 1.00000000
1.00000000 0.82357752 1.00000000
1.00000000 0.83274770 1.00000000
1.00000000 0.84191781 1.00000000
1.00000000 0.85108799 1.00000000
1.00000000 0.82900810 1.00000000
1.00000000 0.80692828 0.98460883
1.00000000 0.78484839 0.95027548
1.00000000 0.76276857 0.91594237
1.00000000 0.74068868 0.88160914
1.00000000 0.71860880 0.84727585
1.00000000 0.69652897 0.81294286
1.00000000 0.67444909 0.77860957
1.00000000 0.65236926 0.74427646
1.00000000 0.63028944 0.70994323
1.00000000 0.60820949 0.67561007
1.00000000 0.58612978 0.64127696
1.00000000 0.56404990 0.60694385
1.00000000 0.54196995 0.57261038
1.00000000 0.51989019 0.53827769
1.00000000 0.49781036 0.50394446
1.00000000 0.47573054 0.46961135
1.00000000 0.45365059 0.43527800
1.00000000 0.43157089 0.40094519
1.00000000 0.40949094 0.36661160
0.71623528 0.71946669 1.00000000
0.75906658 0.72863686 1.00000000
0.80189753 0.73780704 1.00000000
0.84472847 0.74697715 1.00000000
0.88755947 0.75614727 1.00000000
0.93039042 0.76531744 1.00000000
0.97322166 0.77448756 1.00000000
1.00000000 0.78365779 1.00000000
1.00000000 0.79282784 1.00000000
1.00000000 0.80199808 1.00000000
1.00000000 0.81116819 1.00000000
1.00000000 0.82033831 1.00000000
1.00000000 0.82950842 1.00000000
1.00000000 0.83867860 1.00000000
1.00000000 0.81659877 1.00000000
1.00000000 0.79451895 0.98904830
1.00000000 0.77243912 0.95471537
1.00000000 0.75035930 0.92038226
1.00000000 0.72827935 0.88604879
1.00000000 0.70619947 0.85171545
1.00000000 0.68411970 0.81738245
1.00000000 0.66203982 0.78304923
1.00000000 0.63995993 0.74871600
1.00000000 0.61788005 0.71438277
1.00000000 0.59580028 0.68004978
1.00000000 0.57372040 0.64571655
1.00000000 0.55164051 0.61138332
1.00000000 0.52956069 0.57705021
1.00000000 0.50748086 0.54271710
1.00000000 0.48540097 0.50838381
1.00000000 0.46332109 0.47405070
1.00000000 0.44124126 0.43971759
1.00000000 0.41916138 0.40538442
0.69440728 0.69788724 1.00000000
0.73723853 0.70705742 1.00000000
0.78006935 0.71622753 1.00000000
0.82290030 0.72539759 1.00000000
0.86573148 0.73456776 1.00000000
0.90856236 0.74373794 1.00000000
0.95139384 0.75290811 1.00000000
0.99422473 0.76207829 1.00000000
1.00000000 0.77124834 1.00000000
1.00000000 0.78041863 1.00000000
1.00000000 0.78958869 1.00000000
1.00000000 0.79875886 1.00000000
1.00000000 0.80792898 1.00000000
1.00000000 0.81709909 1.00000000
1.00000000 0.82626927 1.00000000
1.00000000 0.80418944 1.00000000
1.00000000 0.78210962 0.99348801
1.00000000 0.76002979 0.95915490
1.00000000 0.73794985 0.92482144
1.00000000 0.71587002 0.89048839
1.00000000 0.69379020 0.85615516
1.00000000 0.67171031 0.82182187
1.00000000 0.64963049 0.78748894
1.00000000 0.62755066 0.75315589
1.00000000 0.60547078 0.71882242
1.00000000 0.58339089 0.68448925
1.00000000 0.56131107 0.65015626
1.00000000 0.53923118 0.61582291
1.00000000 0.51715130 0.58148968
1.00000000 0.49507147 0.54715651
1.00000000 0.47299159 0.51282346
1.00000000 0.45091188 0.47849065
1.00000000 0.42883193 0.44415712
0.67257923 0.67630780 1.00000000
0.71541023 0.68547791 1.00000000
0.75824130 0.69464803 1.00000000
0.80107260 0.70381820 1.00000000
0.84390336 0.71298832 1.00000000
0.88673437 0.72215843 1.00000000
0.92956573 0.73132867 1.00000000
0.97239643 0.74049878 1.00000000
1.00000000 0.74966884 1.00000000
1.00000000 0.75883907 1.00000000
1.00000000 0.76800925 1.00000000
1.00000000 0.77717936 1.00000000
1.00000000 0.78634948 1.00000000
1.00000000 0.79551971 1.00000000
1.00000000 0.80468982 1.00000000
1.00000000 0.81385994 1.00000000
1.00000000 0.79178011 1.00000000
1.00000000 0.76970029 0.99792755
1.00000000 0.74762046 0.96359456
1.00000000 0.72554064 0.92926151
1.00000000 0.70346069 0.89492792
1.00000000 0.68138075 0.86059451
1.00000000 0.65930098 0.82626164
1.00000000 0.63722110 0.79192841
1.00000000 0.61514127 0.75759524
1.00000000 0.59306145 0.72326219
1.00000000 0.57098156 0.68892890
1.00000000 0.54890174 0.65459573
1.00000000 0.52682185 0.62026262
1.00000000 0.50474203 0.58592951
1.00000000 0.48266214 0.55159616
1.00000000 0.46058232 0.51726305
1.00000000 0.43850249 0.48292989
0.65075123 0.65472829 1.00000000
0.69358194 0.66389835 1.00000000
0.73641336 0.67306858 1.00000000
0.77924442 0.68223870 1.00000000
0.82207513 0.69140881 1.00000000
0.86490655 0.70057905 1.00000000
0.90773761 0.70974916 1.00000000
0.95056838 0.71891928 1.00000000
0.99339980 0.72808945 1.00000000
1.00000000 0.73725963 1.00000000
1.00000000 0.74642974 1.00000000
1.00000000 0.75559992 1.00000000
1.00000000 0.76477003 1.00000000
1.00000000 0.77394021 1.00000000
1.00000000 0.78311032 1.00000000
1.00000000 0.79228050 1.00000000
1.00000000 0.80145061 1.00000000
1.00000000 0.77937078 1.00000000
1.00000000 0.75729096 1.00000000
1.00000000 0.73521113 0.96803409
1.00000000 0.71313119 0.93370062
1.00000000 0.69105136 0.89936745
1.00000000 0.66897154 0.86503434
1.00000000 0.64689171 0.83070135
1.00000000 0.62481177 0.79636782
1.00000000 0.60273194 0.76203489
1.00000000 0.58065212 0.72770160
1.00000000 0.55857229 0.69336861
1.00000000 0.53649235 0.65903521
1.00000000 0.51441264 0.62470245
1.00000000 0.49233264 0.59036887
1.00000000 0.47025287 0.55603576
1.00000000 0.44817299 0.52170265
0.62892312 0.63314879 1.00000000
0.67175388 0.64231884 1.00000000
0.71458542 0.65148914 1.00000000
0.75741649 0.66065931 1.00000000
0.80024725 0.66982937 1.00000000
0.84307873 0.67899954 1.00000000
0.88590980 0.68816972 1.00000000
0.92874056 0.69733983 1.00000000
0.97157133 0.70650995 1.00000000
1.00000000 0.71568024 1.00000000
1.00000000 0.72485030 1.00000000
1.00000000 0.73402035 1.00000000
1.00000000 0.74319053 1.00000000
1.00000000 0.75236076 1.00000000
1.00000000 0.76153082 1.00000000
1.00000000 0.77070099 1.00000000
1.00000000 0.77987111 1.00000000
1.00000000 0.78904128 1.00000000
1.00000000 0.76696146 1.00000000
1.00000000 0.74488163 1.00000000
1.00000000 0.72280169 0.97247338
1.00000000 0.70072198 0.93814069
1.00000000 0.67864203 0.90380704
1.00000000 0.65656215 0.86947393
1.00000000 0.63448232 0.83514088
1.00000000 0.61240250 0.80080765
1.00000000 0.59032249 0.76647425
1.00000000 0.56824279 0.73214126
1.00000000 0.54616290 0.69780809
1.00000000 0.52408302 0.66347492
1.00000000 0.50200319 0.62914157
1.00000000 0.47992337 0.59480846
1.00000000 0.45784348 0.56047535
0.60709512 0.61156929 1.00000000
0.64992630 0.62073946 1.00000000
0.69275725 0.62990963 1.00000000
0.73558819 0.63907969 1.00000000
0.77841908 0.64824986 1.00000000
0.82125032 0.65742004 1.00000000
0.86408126 0.66659015 1.00000000
0.90691221 0.67576027 1.00000000
0.94974381 0.68493056 1.00000000
0.99257475 0.69410062 1.00000000
1.00000000 0.70327079 1.00000000
1.00000000 0.71244085 1.00000000
1.00000000 0.72161114 1.00000000
1.00000000 0.73078120 1.00000000
1.00000000 0.73995137 1.00000000
1.00000000 0.74912155 1.00000000
1.00000000 0.75829166 1.00000000
1.00000000 0.76746178 1.00000000
1.00000000 0.77663195 1.00000000
1.00000000 0.75455213 1.00000000
1.00000000 0.73247224 1.00000000
1.00000000 0.71039248 0.97691327
1.00000000 0.68831253 0.94257981
1.00000000 0.66623276 0.90824711
1.00000000 0.64415282 0.87391353
1.00000000 0.62207299 0.83958036
1.00000000 0.59999311 0.80524737
1.00000000 0.57791328 0.77091384
1.00000000 0.55583334 0.73658073
1.00000000 0.53375357 0.70224762
1.00000000 0.51167369 0.66791463
1.00000000 0.48959380 0.63358116
1.00000000 0.46751404 0.59924811
0.58526707 0.58998990 1.00000000
0.62809837 0.59916008 1.00000000
0.67092925 0.60833013 1.00000000
0.71376014 0.61750031 1.00000000
0.75659108 0.62667036 1.00000000
0.79942238 0.63584054 1.00000000
0.84225327 0.64501071 1.00000000
0.88508415 0.65418077 1.00000000
0.92791587 0.66335106 1.00000000
0.97074676 0.67252117 1.00000000
1.00000000 0.68169129 1.00000000
1.00000000 0.69086140 1.00000000
1.00000000 0.70003164 1.00000000
1.00000000 0.70920181 1.00000000
1.00000000 0.71837187 1.00000000
1.00000000 0.72754210 1.00000000
1.00000000 0.73671222 1.00000000
1.00000000 0.74588227 1.00000000
1.00000000 0.75505245 1.00000000
1.00000000 0.76422262 1.00000000
1.00000000 0.74214286 1.00000000
1.00000000 0.72006297 1.00000000
1.00000000 0.69798303 0.98135251
1.00000000 0.67590320 0.94701946
1.00000000 0.65382349 0.91268677
1.00000000 0.63174355 0.87835306
1.00000000 0.60966361 0.84401977
1.00000000 0.58758378 0.80968666
1.00000000 0.56550384 0.77535337
1.00000000 0.54342407 0.74102032
1.00000000 0.52134418 0.70668703
1.00000000 0.49926442 0.67235422
1.00000000 0.47718447 0.63802087
0.56343901 0.56841034 1.00000000
0.60626978 0.57758045 1.00000000
0.64910150 0.58675075 1.00000000
0.69193184 0.59592074 1.00000000
0.73476350 0.60509098 1.00000000
0.77759397 0.61426103 1.00000000
0.82042557 0.62343132 1.00000000
0.86325681 0.63260150 1.00000000
0.90608764 0.64177155 1.00000000
0.94891846 0.65094167 1.00000000
0.99174970 0.66011184 1.00000000
1.00000000 0.66928196 1.00000000
1.00000000 0.67845213 1.00000000
1.00000000 0.68762219 1.00000000
1.00000000 0.69679236 1.00000000
1.00000000 0.70596254 1.00000000
1.00000000 0.71513265 1.00000000
1.00000000 0.72430277 1.00000000
1.00000000 0.73347294 1.00000000
1.00000000 0.74264324 1.00000000
1.00000000 0.75181329 1.00000000
1.00000000 0.72973347 1.00000000
1.00000000 0.70765352 1.00000000
1.00000000 0.68557376 0.98579240
1.00000000 0.66349399 0.95145941
1.00000000 0.64141399 0.91712582
1.00000000 0.61933416 0.88279271
1.00000000 0.59725428 0.84845954
1.00000000 0.57517445 0.81412649
1.00000000 0.55309463 0.77979332
1.00000000 0.53101468 0.74545979
1.00000000 0.50893492 0.71112692
1.00000000 0.48685503 0.67679363
0.54161096 0.54683089 1.00000000
0.58444226 0.55600107 1.00000000
0.62727314 0.56517118 1.00000000
0.67010403 0.57434130 1.00000000
0.71293497 0.58351141 1.00000000
0.75576591 0.59268153 1.00000000
0.79859722 0.60185176 1.00000000
0.84142816 0.61102188 1.00000000
0.88425905 0.62019193 1.00000000
0.92709082 0.62936223 1.00000000
0.96992177 0.63853240 1.00000000
1.00000000 0.64770246 1.00000000
1.00000000 0.65687257 1.00000000
1.00000000 0.66604269 1.00000000
1.00000000 0.67521298 1.00000000
1.00000000 0.68438315 1.00000000
1.00000000 0.69355321 1.00000000
1.00000000 0.70272338 1.00000000
1.00000000 0.71189356 1.00000000
1.00000000 0.72106361 1.00000000
1.00000000 0.73023373 1.00000000
1.00000000 0.73940396 1.00000000
1.00000000 0.71732420 1.00000000
1.00000000 0.69524431 1.00000000
1.00000000 0.67316449 0.99023199
1.00000000 0.65108454 0.95589852
1.00000000 0.62900472 0.92156559
1.00000000 0.60692477 0.88723218
1.00000000 0.58484495 0.85289901
1.00000000 0.56276506 0.81856573
1.00000000 0.54068524 0.78423280
1.00000000 0.51860541 0.74989963
